; generated by PrusaSlicer 2.1.0+win64 on 2020-04-17 at 20:42:07 UTC

; 

; external perimeters extrusion width = 0.45mm
; perimeters extrusion width = 0.45mm
; infill extrusion width = 0.45mm
; solid infill extrusion width = 0.45mm
; top infill extrusion width = 0.40mm
; first layer extrusion width = 0.42mm

M73 P0 R166
M73 Q0 S167
M201 X1000 Y1000 Z1000 E5000 ; sets maximum accelerations, mm/sec^2
M203 X200 Y200 Z12 E120 ; sets maximum feedrates, mm/sec
M204 P1250 R1250 T1250 ; sets acceleration (P, T) and retract acceleration (R), mm/sec^2
M205 X8.00 Y8.00 Z0.40 E1.50 ; sets the jerk limits, mm/sec
M205 S0 T0 ; sets the minimum extruding and travel feed rate, mm/sec
M107
M862.3 P "MK3S" ; printer model check
M862.1 P0.4 ; nozzle diameter check
M115 U3.8.0 ; tell printer latest fw version
G90 ; use absolute coordinates
M83 ; extruder relative mode
M104 S215 ; set extruder temp
M140 S60 ; set bed temp
M190 S60 ; wait for bed temp
M109 S215 ; wait for extruder temp
G28 W ; home all without mesh bed level
G80 ; mesh bed leveling
G1 Y-3.0 F1000.0 ; go outside print area
G92 E0.0
G1 X60.0 E9.0 F1000.0 ; intro line
M73 Q0 S167
M73 P0 R166
G1 X100.0 E12.5 F1000.0 ; intro line
G92 E0.0
M221 S95
G21 ; set units to millimeters
G90 ; use absolute coordinates
M83 ; use relative distances for extrusion
M900 K30 ; Filament gcode
;BEFORE_LAYER_CHANGE
G92 E0.0
;0.2


G1 E-0.80000 F2100.00000
G1 Z0.600 F10800.000
;AFTER_LAYER_CHANGE
;0.2
G1 X121.313 Y73.903
G1 Z0.200
G1 E0.80000 F2100.00000
M204 S1000
G1 F1200
G1 X121.763 Y73.233 E0.02532
G1 X122.197 Y72.779 E0.01968
G1 X122.808 Y72.320 E0.02395
G1 X123.548 Y71.961 E0.02579
G1 X124.339 Y71.753 E0.02566
G1 X125.105 Y71.703 E0.02405
G1 X125.733 Y71.767 E0.01982
G1 X126.520 Y71.987 E0.02559
G1 X127.221 Y72.338 E0.02461
G1 X127.851 Y72.821 E0.02488
G1 X128.379 Y73.416 E0.02495
G1 X128.700 Y73.928 E0.01894
G1 X128.997 Y74.638 E0.02413
G1 X129.159 Y75.396 E0.02430
G1 X133.172 Y130.589 E1.73512
G1 X133.177 Y131.556 E0.03032
G1 X133.069 Y132.506 E0.02997
G1 X132.851 Y133.434 E0.02990
G1 X132.528 Y134.330 E0.02986
G1 X132.097 Y135.193 E0.03023
G1 X131.583 Y135.979 E0.02945
G1 X130.961 Y136.722 E0.03040
G1 X130.269 Y137.377 E0.02987
G1 X129.415 Y138.001 E0.03315
G1 X128.926 Y138.210 E0.01669
G1 X128.400 Y138.295 E0.01669
G1 X121.567 Y138.294 E0.21427
G1 X121.067 Y138.208 E0.01589
G1 X120.600 Y138.010 E0.01589
G1 X119.342 Y137.027 E0.05008
G1 X118.714 Y136.356 E0.02880
G1 X118.178 Y135.637 E0.02813
G1 X117.459 Y134.298 E0.04765
G1 X117.031 Y132.992 E0.04308
G1 X116.829 Y131.635 E0.04301
G1 X116.823 Y126.606 E0.15769
G1 X120.846 Y75.360 E1.61174
G1 X121.007 Y74.623 E0.02363
G1 X121.289 Y73.958 E0.02265
G1 F8640
G1 X121.763 Y73.233 E-0.20011
G1 X122.197 Y72.779 E-0.14494
G1 X122.808 Y72.320 E-0.17640
G1 X123.548 Y71.961 E-0.18993
G1 X123.751 Y71.907 E-0.04862
G1 E-0.04000 F2100.00000
G1 Z0.800 F10800.000
G1 X123.977 Y75.241
G1 Z0.200
G1 E0.80000 F2100.00000
G1 F1200
G1 X124.090 Y75.091 E0.00589
G1 X124.345 Y74.870 E0.01058
G1 X124.652 Y74.729 E0.01058
G1 X124.828 Y74.691 E0.00565
G1 X125.008 Y74.678 E0.00565
G1 X125.342 Y74.726 E0.01059
G1 X125.656 Y74.870 E0.01082
G1 X125.911 Y75.091 E0.01059
G1 X126.018 Y75.235 E0.00563
G1 X126.105 Y75.393 E0.00565
G1 X126.200 Y75.717 E0.01059
G1 X126.200 Y76.054 E0.01057
G1 X126.162 Y76.230 E0.00565
G1 X126.099 Y76.399 E0.00566
G1 X125.916 Y76.683 E0.01058
G1 X125.656 Y76.909 E0.01081
G1 X125.349 Y77.049 E0.01059
G1 X125.172 Y77.087 E0.00567
G1 X124.993 Y77.100 E0.00564
G1 X124.659 Y77.052 E0.01058
G1 X124.352 Y76.912 E0.01058
G1 X124.201 Y76.800 E0.00589
G1 X123.980 Y76.545 E0.01058
G1 X123.840 Y76.238 E0.01058
G1 X123.802 Y76.062 E0.00565
G1 X123.789 Y75.882 E0.00565
G1 X123.837 Y75.548 E0.01058
G1 X123.952 Y75.295 E0.00870
G1 X123.883 Y75.078 F10800.000
G1 F8640
G1 X124.090 Y75.091 E-0.05697
G1 X124.345 Y74.870 E-0.07790
G1 X124.652 Y74.729 E-0.07792
G1 X124.828 Y74.691 E-0.04162
G1 X125.008 Y74.678 E-0.04162
G1 X125.342 Y74.726 E-0.07797
G1 X125.656 Y74.870 E-0.07970
G1 X125.911 Y75.091 E-0.07796
G1 X126.018 Y75.235 E-0.04145
G1 X126.105 Y75.393 E-0.04164
G1 X126.200 Y75.717 E-0.07799
G1 X126.200 Y76.008 E-0.06726
G1 E-0.04000 F2100.00000
G1 Z0.800 F10800.000
G1 X124.757 Y129.031
G1 Z0.200
G1 E0.80000 F2100.00000
G1 F1200
G1 X125.243 Y129.031 E0.01525
G1 X125.716 Y129.144 E0.01523
G1 X126.133 Y129.353 E0.01464
G1 X126.355 Y129.519 E0.00869
G1 X126.665 Y129.846 E0.01414
G1 X126.818 Y130.078 E0.00871
G1 X126.997 Y130.493 E0.01416
G1 X127.060 Y130.763 E0.00870
G1 X127.087 Y131.229 E0.01463
G1 X127.003 Y131.707 E0.01521
G1 X126.818 Y132.138 E0.01470
G1 X126.665 Y132.370 E0.00871
G1 X126.344 Y132.710 E0.01466
G1 X125.939 Y132.977 E0.01523
G1 X125.498 Y133.138 E0.01470
G1 X125.225 Y133.185 E0.00869
G1 X124.758 Y133.185 E0.01465
G1 X124.302 Y133.078 E0.01467
G1 X124.047 Y132.968 E0.00871
G1 X123.671 Y132.720 E0.01413
G1 X123.469 Y132.530 E0.00867
G1 X123.199 Y132.167 E0.01418
G1 X123.075 Y131.920 E0.00868
G1 X122.941 Y131.472 E0.01466
G1 X122.913 Y130.987 E0.01524
G1 X122.994 Y130.526 E0.01468
G1 X123.089 Y130.265 E0.00869
G1 X123.323 Y129.859 E0.01470
G1 X123.644 Y129.519 E0.01469
G1 X123.867 Y129.353 E0.00869
G1 X124.285 Y129.144 E0.01465
G1 X124.698 Y129.045 E0.01334
G1 X124.786 Y129.412 F10800.000
G1 F1200
G1 X125.199 Y129.408 E0.01294
G1 X125.585 Y129.500 E0.01247
G1 X125.935 Y129.676 E0.01225
G1 X126.104 Y129.802 E0.00662
G1 X126.368 Y130.081 E0.01207
G1 X126.485 Y130.258 E0.00663
G1 X126.637 Y130.612 E0.01208
G1 X126.686 Y130.818 E0.00663
G1 X126.708 Y131.207 E0.01223
G1 X126.640 Y131.599 E0.01246
G1 X126.485 Y131.958 E0.01228
G1 X126.368 Y132.135 E0.00663
G1 X126.100 Y132.419 E0.01225
G1 X125.768 Y132.638 E0.01247
G1 X125.400 Y132.772 E0.01227
G1 X125.192 Y132.808 E0.00663
G1 X124.801 Y132.808 E0.01225
G1 X124.421 Y132.718 E0.01226
G1 X124.227 Y132.635 E0.00663
G1 X123.905 Y132.423 E0.01208
G1 X123.752 Y132.278 E0.00660
G1 X123.522 Y131.969 E0.01210
G1 X123.427 Y131.780 E0.00662
G1 X123.315 Y131.406 E0.01225
G1 X123.292 Y131.009 E0.01247
G1 X123.359 Y130.624 E0.01226
G1 X123.432 Y130.425 E0.00662
G1 X123.627 Y130.086 E0.01228
G1 X123.896 Y129.802 E0.01226
G1 X124.065 Y129.676 E0.00662
G1 X124.415 Y129.500 E0.01225
G1 X124.728 Y129.426 E0.01009
G1 X124.942 Y129.043 F10800.000
G1 F8640
G1 X125.199 Y129.408 E-0.10885
G1 X125.585 Y129.500 E-0.09180
G1 X125.935 Y129.676 E-0.09018
G1 X126.104 Y129.802 E-0.04875
G1 X126.368 Y130.081 E-0.08888
G1 X126.485 Y130.258 E-0.04885
G1 X126.637 Y130.612 E-0.08899
G1 X126.686 Y130.818 E-0.04882
G1 X126.708 Y131.207 E-0.09009
G1 X126.667 Y131.441 E-0.05479
G1 E-0.04000 F2100.00000
G1 Z0.800 F10800.000
G1 X122.868 Y128.410
G1 Z0.200
G1 E0.80000 F2100.00000
G1 F1200
G1 X122.826 Y128.486 E0.00273
G1 X122.557 Y128.797 E0.01290
G1 X122.342 Y128.957 E0.00840
G1 X121.968 Y129.128 E0.01289
G1 X121.705 Y129.185 E0.00845
G1 X121.295 Y129.185 E0.01284
G1 X121.053 Y129.133 E0.00777
G1 X120.820 Y129.046 E0.00780
G1 X120.457 Y128.812 E0.01354
G1 X120.174 Y128.486 E0.01354
G1 X120.045 Y128.250 E0.00843
G1 X119.929 Y127.856 E0.01289
G1 X119.910 Y127.587 E0.00845
G1 X119.968 Y127.180 E0.01291
G1 X120.063 Y126.929 E0.00840
G1 X120.296 Y126.565 E0.01356
G1 X120.623 Y126.282 E0.01357
G1 X120.859 Y126.154 E0.00839
G1 X121.272 Y126.031 E0.01354
G1 X121.707 Y126.031 E0.01362
G1 X121.969 Y126.089 E0.00843
G1 X122.341 Y126.259 E0.01281
G1 X122.540 Y126.407 E0.00777
G1 X122.716 Y126.583 E0.00781
G1 X122.949 Y126.947 E0.01356
G1 X123.077 Y127.382 E0.01420
G1 X123.077 Y127.836 E0.01423
G1 X122.955 Y128.250 E0.01355
G1 X122.897 Y128.357 E0.00381
G1 X122.605 Y128.105 F10800.000
G1 F1200
G1 X122.515 Y128.270 E0.00588
G1 X122.299 Y128.519 E0.01035
G1 X122.148 Y128.631 E0.00587
G1 X121.848 Y128.769 E0.01035
G1 X121.665 Y128.808 E0.00589
G1 X121.335 Y128.808 E0.01032
G1 X121.159 Y128.770 E0.00565
G1 X120.990 Y128.707 E0.00566
G1 X120.706 Y128.524 E0.01058
G1 X120.485 Y128.270 E0.01057
G1 X120.395 Y128.105 E0.00588
G1 X120.302 Y127.789 E0.01034
G1 X120.289 Y127.601 E0.00591
G1 X120.336 Y127.274 E0.01035
G1 X120.402 Y127.098 E0.00587
G1 X120.584 Y126.814 E0.01059
G1 X120.839 Y126.593 E0.01058
G1 X121.004 Y126.504 E0.00587
G1 X121.327 Y126.408 E0.01058
G1 X121.665 Y126.408 E0.01060
G1 X121.849 Y126.449 E0.00589
G1 X122.148 Y126.585 E0.01031
G1 X122.293 Y126.693 E0.00565
G1 X122.420 Y126.821 E0.00567
G1 X122.603 Y127.105 E0.01059
G1 X122.700 Y127.436 E0.01081
G1 X122.700 Y127.781 E0.01083
G1 X122.622 Y128.047 E0.00870
G1 X122.721 Y128.252 F10800.000
G1 F8640
G1 X122.515 Y128.270 E-0.05693
G1 X122.299 Y128.519 E-0.07619
G1 X122.148 Y128.631 E-0.04323
G1 X121.848 Y128.769 E-0.07623
G1 X121.665 Y128.808 E-0.04341
G1 X121.335 Y128.808 E-0.07603
G1 X121.159 Y128.770 E-0.04163
G1 X120.990 Y128.707 E-0.04170
G1 X120.706 Y128.524 E-0.07788
G1 X120.485 Y128.270 E-0.07786
G1 X120.395 Y128.105 E-0.04333
G1 X120.302 Y127.789 E-0.07615
G1 X120.293 Y127.662 E-0.02942
G1 E-0.04000 F2100.00000
G1 Z0.800 F10800.000
G1 X121.759 Y135.443
G1 Z0.200
G1 E0.80000 F2100.00000
G1 F1200
G1 X121.267 Y135.027 E0.02020
G1 X121.058 Y134.817 E0.00929
G1 X120.645 Y134.323 E0.02019
G1 X120.476 Y134.079 E0.00929
G1 X120.159 Y133.528 E0.01993
G1 X119.909 Y132.945 E0.01990
G1 X119.816 Y132.663 E0.00932
G1 X119.670 Y132.044 E0.01992
G1 X119.597 Y131.422 E0.01965
G1 X119.595 Y126.775 E0.14571
G1 X119.677 Y126.412 E0.01165
G1 X119.802 Y126.157 E0.00892
G1 X120.648 Y125.117 E0.04203
G1 X121.281 Y124.223 E0.03435
G1 X121.843 Y123.283 E0.03433
G1 X122.331 Y122.301 E0.03437
G1 X122.742 Y121.285 E0.03436
G1 X123.074 Y120.241 E0.03435
G1 X123.325 Y119.174 E0.03437
G1 X123.493 Y118.092 E0.03435
G1 X123.577 Y117.005 E0.03417
G1 X123.587 Y116.457 E0.01720
G1 X123.587 Y76.591 E1.24995
G1 X123.660 Y76.751 E0.00549
G1 X123.943 Y77.077 E0.01355
G1 X124.158 Y77.238 E0.00843
G1 X124.551 Y77.418 E0.01355
G1 X124.979 Y77.479 E0.01355
G1 X125.226 Y77.462 E0.00775
G1 X125.468 Y77.409 E0.00778
G1 X125.862 Y77.230 E0.01357
G1 X126.204 Y76.933 E0.01421
G1 X126.403 Y76.623 E0.01153
G1 X126.413 Y111.843 E1.10431
G1 X126.452 Y113.689 E0.05789
G1 X126.572 Y115.536 E0.05801
G1 X126.663 Y116.463 E0.02923
G1 X126.900 Y118.295 E0.05791
G1 X127.050 Y119.213 E0.02916
G1 X127.220 Y120.128 E0.02917
G1 X127.615 Y121.934 E0.05798
G1 X128.089 Y123.725 E0.05810
G1 X128.639 Y125.495 E0.05809
G1 X129.265 Y127.238 E0.05808
G1 X130.083 Y129.248 E0.06803
G1 X130.182 Y129.545 E0.00981
G1 X130.262 Y129.840 E0.00959
G1 X130.376 Y130.475 E0.02024
G1 X130.402 Y130.771 E0.00932
G1 X130.404 Y131.409 E0.01999
G1 X130.333 Y132.033 E0.01969
G1 X130.189 Y132.645 E0.01973
G1 X129.976 Y133.236 E0.01969
G1 X129.696 Y133.799 E0.01972
G1 X129.352 Y134.326 E0.01972
G1 X128.950 Y134.808 E0.01969
G1 X128.494 Y135.241 E0.01971
G1 X128.121 Y135.521 E0.01463
G1 X121.869 Y135.521 E0.19602
G1 X121.808 Y135.478 E0.00236
G1 X121.591 Y135.786 F10800.000
G1 F1200
G1 X121.011 Y135.305 E0.02362
G1 X120.779 Y135.071 E0.01031
G1 X120.345 Y134.552 E0.02123
G1 X120.157 Y134.282 E0.01032
G1 X119.821 Y133.697 E0.02113
G1 X119.556 Y133.079 E0.02110
G1 X119.452 Y132.765 E0.01035
G1 X119.298 Y132.110 E0.02111
G1 X119.220 Y131.444 E0.02102
G1 X119.218 Y126.740 E0.14748
G1 X119.279 Y126.414 E0.01039
G1 X119.327 Y126.269 E0.00481
G1 X119.475 Y125.968 E0.01053
G1 X119.564 Y125.836 E0.00497
G1 X120.349 Y124.888 E0.03859
G1 X120.964 Y124.017 E0.03345
G1 X121.512 Y123.102 E0.03342
G1 X121.987 Y122.146 E0.03346
G1 X122.387 Y121.157 E0.03345
G1 X122.710 Y120.141 E0.03344
G1 X122.954 Y119.102 E0.03346
G1 X123.118 Y118.048 E0.03344
G1 X123.200 Y116.987 E0.03337
G1 X123.210 Y116.453 E0.01674
G1 X123.210 Y75.900 E1.27152
G1 X123.248 Y75.529 E0.01169
G1 X123.356 Y75.184 E0.01135
G1 X123.532 Y74.867 E0.01135
G1 X123.768 Y74.593 E0.01135
G1 X124.054 Y74.371 E0.01135
G1 X124.379 Y74.212 E0.01135
G1 X124.729 Y74.121 E0.01135
G1 X125.096 Y74.102 E0.01151
G1 X125.266 Y74.120 E0.00536
G1 X125.622 Y74.212 E0.01152
G1 X125.946 Y74.371 E0.01134
G1 X126.237 Y74.596 E0.01152
G1 X126.355 Y74.720 E0.00536
G1 X126.564 Y75.021 E0.01150
G1 X126.707 Y75.354 E0.01135
G1 X126.780 Y75.709 E0.01136
G1 X126.790 Y111.839 E1.13286
G1 X126.829 Y113.673 E0.05751
G1 X126.948 Y115.505 E0.05756
G1 X127.037 Y116.421 E0.02885
G1 X127.273 Y118.240 E0.05753
G1 X127.421 Y119.148 E0.02883
G1 X127.589 Y120.053 E0.02885
G1 X127.982 Y121.845 E0.05754
G1 X128.451 Y123.621 E0.05759
G1 X128.997 Y125.375 E0.05758
G1 X129.617 Y127.103 E0.05757
G1 X130.437 Y129.117 E0.06817
G1 X130.543 Y129.436 E0.01053
G1 X130.630 Y129.757 E0.01044
G1 X130.750 Y130.425 E0.02127
G1 X130.779 Y130.754 E0.01035
G1 X130.781 Y131.429 E0.02119
G1 X130.705 Y132.097 E0.02107
G1 X130.551 Y132.752 E0.02110
G1 X130.324 Y133.384 E0.02106
G1 X130.023 Y133.987 E0.02110
G1 X129.656 Y134.550 E0.02110
G1 X129.225 Y135.066 E0.02107
G1 X128.738 Y135.529 E0.02108
G1 X128.247 Y135.898 E0.01926
G1 X121.750 Y135.898 E0.20371
G1 X121.640 Y135.820 E0.00423
G1 X121.568 Y135.387 F10800.000
G1 X122.048 Y135.408
G1 F1200
G1 X120.453 Y133.812 E0.07097
G1 F8640
G1 X122.048 Y135.408 E-0.52105
G1 E-0.27895 F2100.00000
G1 Z0.800 F10800.000
G1 X119.982 Y132.807
G1 Z0.200
G1 E0.80000 F2100.00000
G1 F1200
G1 X122.414 Y135.238 E0.10816
G1 X122.949 Y135.238 E0.01682
G1 X120.024 Y132.313 E0.13010
G1 X119.949 Y131.995 E0.01028
G1 X119.910 Y131.665 E0.01047
G1 X123.484 Y135.238 E0.15894
G1 X124.019 Y135.238 E0.01682
G1 X119.880 Y131.100 E0.18409
G1 X119.880 Y130.564 E0.01683
G1 X124.553 Y135.238 E0.20789
G1 X125.088 Y135.238 E0.01682
G1 X119.879 Y130.029 E0.23169
G1 X119.879 Y129.494 E0.01683
G1 X125.623 Y135.238 E0.25549
G1 X126.158 Y135.238 E0.01682
G1 X124.284 Y133.364 E0.08337
G1 X124.725 Y133.468 E0.01424
G1 X124.923 Y133.468 E0.00624
G1 X126.693 Y135.238 E0.07874
G1 X127.228 Y135.238 E0.01682
G1 X125.427 Y133.437 E0.08012
G1 X125.571 Y133.412 E0.00461
G1 X125.839 Y133.314 E0.00897
G1 X127.763 Y135.238 E0.08557
G1 X128.027 Y135.238 E0.00830
G1 X128.182 Y135.122 E0.00609
G1 X126.202 Y133.142 E0.08806
G1 X126.524 Y132.930 E0.01214
G1 X128.469 Y134.875 E0.08652
G1 X128.744 Y134.614 E0.01190
G1 X126.785 Y132.655 E0.08713
G1 X126.888 Y132.546 E0.00472
G1 X127.016 Y132.351 E0.00733
G1 X128.987 Y134.322 E0.08767
G1 X129.216 Y134.017 E0.01202
G1 X127.189 Y131.990 E0.09014
G1 X127.276 Y131.789 E0.00689
G1 X127.313 Y131.579 E0.00671
G1 X129.427 Y133.693 E0.09404
G1 X129.609 Y133.339 E0.01250
G1 X127.362 Y131.093 E0.09991
G1 X127.341 Y130.723 E0.01168
G1 X127.284 Y130.480 E0.00785
G1 X129.772 Y132.968 E0.11068
G1 X129.914 Y132.575 E0.01315
G1 X121.592 Y124.253 E0.37015
G1 X121.792 Y123.918 E0.01227
G1 X130.016 Y132.142 E0.36581
G1 X130.053 Y131.984 E0.00511
G1 X130.088 Y131.679 E0.00965
G1 X121.992 Y123.583 E0.36010
G1 X122.181 Y123.237 E0.01240
G1 X130.120 Y131.176 E0.35313
G1 X130.105 Y130.626 E0.01731
G1 X122.359 Y122.880 E0.34455
G1 X122.537 Y122.523 E0.01255
G1 X130.001 Y129.987 E0.33200
G1 X129.911 Y129.626 E0.01169
G1 X129.765 Y129.216 E0.01369
G1 X122.698 Y122.149 E0.31434
G1 X122.852 Y121.768 E0.01292
G1 X129.397 Y128.314 E0.29114
G1 X129.030 Y127.411 E0.03065
G1 X123.006 Y121.387 E0.26794
G1 X123.135 Y120.982 E0.01339
G1 X128.725 Y126.572 E0.24863
G1 X128.426 Y125.737 E0.02787
G1 X123.264 Y120.576 E0.22958
G1 X123.384 Y120.160 E0.01360
G1 X128.174 Y124.950 E0.21306
G1 X127.932 Y124.174 E0.02558
G1 X123.485 Y119.727 E0.19778
G1 X123.587 Y119.294 E0.01400
G1 X127.716 Y123.423 E0.18366
G1 X127.524 Y122.696 E0.02365
G1 X123.664 Y118.835 E0.17171
G1 X123.735 Y118.372 E0.01474
G1 X127.334 Y121.971 E0.16005
G1 X127.184 Y121.286 E0.02205
G1 X123.792 Y117.894 E0.15088
G1 X123.830 Y117.397 E0.01567
G1 X127.034 Y120.601 E0.14250
G1 X126.895 Y119.927 E0.02165
G1 X123.859 Y116.891 E0.13500
G1 X123.859 Y116.357 E0.01682
G1 X126.773 Y119.270 E0.12957
G1 X126.668 Y118.630 E0.02037
G1 X123.860 Y115.822 E0.12492
G1 X123.860 Y115.287 E0.01682
G1 X126.577 Y118.005 E0.12087
G1 X126.498 Y117.390 E0.01949
G1 X123.860 Y114.752 E0.11732
G1 X123.860 Y114.217 E0.01682
G1 X126.418 Y116.775 E0.11377
G1 X126.350 Y116.172 E0.01908
G1 X123.860 Y113.683 E0.11074
G1 X123.860 Y113.148 E0.01682
