; generated by PrusaSlicer 2.1.0+win64 on 2020-04-17 at 20:42:35 UTC

; 

; external perimeters extrusion width = 0.45mm
; perimeters extrusion width = 0.45mm
; infill extrusion width = 0.45mm
; solid infill extrusion width = 0.45mm
; top infill extrusion width = 0.40mm
; first layer extrusion width = 0.42mm

M73 P0 R118
M73 Q0 S118
M201 X1000 Y1000 Z1000 E5000 ; sets maximum accelerations, mm/sec^2
M203 X200 Y200 Z12 E120 ; sets maximum feedrates, mm/sec
M204 P1250 R1250 T1250 ; sets acceleration (P, T) and retract acceleration (R), mm/sec^2
M205 X8.00 Y8.00 Z0.40 E1.50 ; sets the jerk limits, mm/sec
M205 S0 T0 ; sets the minimum extruding and travel feed rate, mm/sec
M107
M862.3 P "MK3S" ; printer model check
M862.1 P0.4 ; nozzle diameter check
M115 U3.8.0 ; tell printer latest fw version
G90 ; use absolute coordinates
M83 ; extruder relative mode
M104 S215 ; set extruder temp
M140 S60 ; set bed temp
M190 S60 ; wait for bed temp
M109 S215 ; wait for extruder temp
G28 W ; home all without mesh bed level
G80 ; mesh bed leveling
G1 Y-3.0 F1000.0 ; go outside print area
G92 E0.0
G1 X60.0 E9.0 F1000.0 ; intro line
M73 Q0 S118
M73 P0 R118
G1 X100.0 E12.5 F1000.0 ; intro line
G92 E0.0
M221 S95
G21 ; set units to millimeters
G90 ; use absolute coordinates
M83 ; use relative distances for extrusion
M900 K30 ; Filament gcode
;BEFORE_LAYER_CHANGE
G92 E0.0
;0.2


G1 E-0.80000 F2100.00000
G1 Z0.600 F10800.000
;AFTER_LAYER_CHANGE
;0.2
G1 X111.646 Y101.073
G1 Z0.200
G1 E0.80000 F2100.00000
M204 S1000
G1 F1200
G1 X112.515 Y100.573 E0.03144
G1 X131.004 Y96.577 E0.59307
G1 X132.829 Y96.417 E0.05745
G1 X133.864 Y96.499 E0.03258
G1 X134.910 Y96.714 E0.03345
G1 X136.200 Y97.177 E0.04298
G1 X137.105 Y97.653 E0.03206
G1 X137.979 Y98.257 E0.03333
G1 X138.620 Y98.842 E0.02720
G1 X139.000 Y99.441 E0.02226
G1 X139.201 Y100.118 E0.02214
G1 X139.230 Y109.519 E0.29475
G1 X139.125 Y110.225 E0.02238
G1 X138.710 Y111.047 E0.02888
G1 X137.968 Y111.752 E0.03208
G1 X136.722 Y112.566 E0.04668
G1 X135.356 Y113.153 E0.04661
G1 X134.360 Y113.417 E0.03231
G1 X133.353 Y113.558 E0.03188
G1 X132.335 Y113.580 E0.03193
G1 X131.276 Y113.472 E0.03337
G1 X114.423 Y109.402 E0.54359
G1 X113.711 Y108.989 E0.02582
G1 X113.165 Y108.372 E0.02582
G1 X110.906 Y103.826 E0.15918
G1 X110.776 Y102.832 E0.03144
G1 X111.037 Y101.864 E0.03144
G1 X111.610 Y101.120 E0.02943
G1 X111.926 Y101.330 F10800.000
G1 F1200
G1 X112.673 Y100.918 E0.02676
G1 X131.077 Y96.947 E0.59033
G1 X132.829 Y96.794 E0.05512
G1 X133.806 Y96.872 E0.03074
G1 X134.758 Y97.063 E0.03044
G1 X135.674 Y97.364 E0.03022
G1 X136.582 Y97.788 E0.03144
G1 X137.395 Y98.293 E0.03001
G1 X138.260 Y99.005 E0.03514
G1 X138.635 Y99.551 E0.02078
G1 X138.829 Y100.181 E0.02066
G1 X138.853 Y109.514 E0.29263
G1 X138.767 Y110.105 E0.01873
G1 X138.398 Y110.835 E0.02563
G1 X137.717 Y111.470 E0.02920
G1 X136.536 Y112.238 E0.04418
G1 X135.201 Y112.807 E0.04549
G1 X134.280 Y113.048 E0.02985
G1 X133.317 Y113.182 E0.03047
G1 X132.348 Y113.203 E0.03041
G1 X131.337 Y113.100 E0.03186
G1 X114.557 Y109.049 E0.54124
G1 X113.938 Y108.688 E0.02247
G1 X113.471 Y108.149 E0.02236
G1 X111.250 Y103.668 E0.15679
G1 X111.155 Y102.816 E0.02687
G1 X111.393 Y101.997 E0.02676
G1 X111.888 Y101.377 E0.02488
G1 F8640
G1 X112.673 Y100.918 E-0.20992
G1 X115.002 Y100.416 E-0.55008
G1 E-0.04000 F2100.00000
G1 Z0.800 F10800.000
G1 X129.497 Y104.472
G1 Z0.200
G1 E0.80000 F2100.00000
G1 F1200
G1 X129.628 Y103.958 E0.01663
G1 X129.839 Y103.476 E0.01649
G1 X129.979 Y103.241 E0.00859
G1 X130.302 Y102.826 E0.01648
G1 X130.690 Y102.470 E0.01650
G1 X130.913 Y102.311 E0.00859
G1 X131.375 Y102.060 E0.01647
G1 X131.877 Y101.888 E0.01666
G1 X132.425 Y101.800 E0.01741
G1 X132.925 Y101.801 E0.01568
G1 X133.197 Y101.835 E0.00858
G1 X133.703 Y101.963 E0.01638
G1 X133.959 Y102.062 E0.00860
G1 X134.421 Y102.313 E0.01647
G1 X134.839 Y102.638 E0.01662
G1 X135.198 Y103.028 E0.01664
G1 X135.486 Y103.469 E0.01649
G1 X135.607 Y103.715 E0.00859
G1 X135.778 Y104.212 E0.01650
G1 X135.864 Y104.736 E0.01663
G1 X135.864 Y105.261 E0.01647
G1 X135.831 Y105.533 E0.00859
G1 X135.701 Y106.044 E0.01652
G1 X135.489 Y106.528 E0.01660
G1 X135.201 Y106.969 E0.01649
G1 X135.024 Y107.178 E0.00858
G1 X134.640 Y107.531 E0.01638
G1 X134.417 Y107.691 E0.00859
G1 X133.955 Y107.941 E0.01647
G1 X133.453 Y108.113 E0.01665
G1 X132.929 Y108.200 E0.01663
G1 X132.400 Y108.200 E0.01660
G1 X131.881 Y108.114 E0.01650
G1 X131.618 Y108.036 E0.00861
G1 X131.137 Y107.824 E0.01647
G1 X130.696 Y107.537 E0.01649
G1 X130.488 Y107.360 E0.00858
G1 X130.131 Y106.973 E0.01651
G1 X129.843 Y106.532 E0.01650
G1 X129.723 Y106.286 E0.00860
G1 X129.552 Y105.789 E0.01648
G1 X129.466 Y105.270 E0.01649
G1 X129.454 Y104.996 E0.00860
G1 X129.492 Y104.532 E0.01461
G1 X129.192 Y104.213 F10800.000
G1 X129.090 Y105.309
G1 F1200
G1 X129.111 Y105.432 E0.00390
G1 X128.798 Y105.160 E0.01298
G1 X128.385 Y104.972 E0.01422
G1 X127.956 Y104.910 E0.01361
G1 X127.710 Y104.929 E0.00775
G1 X127.469 Y104.980 E0.00772
G1 X127.074 Y105.160 E0.01360
G1 X126.732 Y105.458 E0.01422
G1 X126.497 Y105.822 E0.01358
G1 X126.413 Y106.054 E0.00773
G1 X126.359 Y106.293 E0.00770
G1 X126.359 Y106.727 E0.01361
G1 X126.481 Y107.143 E0.01359
G1 X126.601 Y107.360 E0.00776
G1 X126.747 Y107.557 E0.00769
G1 X127.074 Y107.841 E0.01359
G1 X127.469 Y108.021 E0.01360
G1 X127.732 Y108.077 E0.00844
G1 X128.140 Y108.077 E0.01280
G1 X128.404 Y108.021 E0.00844
G1 X128.798 Y107.841 E0.01360
G1 X129.140 Y107.543 E0.01422
G1 X129.375 Y107.179 E0.01358
G1 X129.460 Y106.948 E0.00773
G1 X129.512 Y106.713 E0.00753
G1 X129.832 Y107.205 E0.01840
G1 X130.226 Y107.633 E0.01823
G1 X130.471 Y107.840 E0.01005
G1 X130.957 Y108.157 E0.01820
G1 X131.487 Y108.390 E0.01817
G1 X131.796 Y108.482 E0.01009
G1 X132.369 Y108.577 E0.01821
G1 X132.960 Y108.577 E0.01855
G1 X133.545 Y108.480 E0.01859
G1 X134.107 Y108.287 E0.01862
G1 X134.617 Y108.011 E0.01818
G1 X134.878 Y107.825 E0.01005
G1 X135.297 Y107.439 E0.01785
G1 X135.504 Y107.195 E0.01005
G1 X135.821 Y106.709 E0.01820
G1 X136.077 Y106.096 E0.02081
G1 X136.077 Y109.215 E0.09778
G1 X135.767 Y109.460 E0.01240
G1 X135.515 Y109.625 E0.00944
G1 X134.945 Y109.930 E0.02026
G1 X134.352 Y110.163 E0.01997
G1 X133.736 Y110.326 E0.01998
G1 X133.096 Y110.415 E0.02028
G1 X132.792 Y110.431 E0.00955
G1 X132.139 Y110.407 E0.02047
G1 X131.503 Y110.307 E0.02019
G1 X130.875 Y110.129 E0.02047
G1 X130.589 Y110.021 E0.00957
G1 X129.994 Y109.732 E0.02074
G1 X129.725 Y109.569 E0.00987
G1 X128.512 Y108.747 E0.04594
G1 X127.521 Y108.180 E0.03579
G1 X126.999 Y107.920 E0.01829
G1 X125.958 Y107.469 E0.03556
G1 X125.416 Y107.269 E0.01813
G1 X124.866 Y107.090 E0.01812
G1 X123.764 Y106.797 E0.03575
G1 X122.644 Y106.587 E0.03575
G1 X122.065 Y106.512 E0.01829
G1 X120.929 Y106.427 E0.03572
G1 X115.920 Y106.418 E0.15705
G1 X115.913 Y104.749 E0.05233
G1 X115.814 Y104.252 E0.01588
G1 X115.620 Y103.783 E0.01592
G1 X115.454 Y103.534 E0.00939
G1 X117.047 Y103.431 E0.05008
G1 X118.892 Y103.231 E0.05816
G1 X119.817 Y103.100 E0.02930
G1 X121.645 Y102.781 E0.05819
G1 X123.460 Y102.383 E0.05825
G1 X125.252 Y101.907 E0.05813
G1 X126.149 Y101.638 E0.02937
G1 X127.903 Y101.049 E0.05802
G1 X128.781 Y100.722 E0.02936
G1 X130.773 Y99.908 E0.06748
G1 X131.331 Y99.734 E0.01832
G1 X131.921 Y99.620 E0.01884
G1 X132.520 Y99.570 E0.01884
G1 X132.800 Y99.570 E0.00880
G1 X133.429 Y99.622 E0.01979
G1 X133.728 Y99.673 E0.00950
G1 X134.361 Y99.840 E0.02051
G1 X134.938 Y100.067 E0.01946
G1 X135.507 Y100.372 E0.02025
G1 X136.077 Y100.775 E0.02189
G1 X136.077 Y103.924 E0.09872
G1 X135.956 Y103.570 E0.01173
G1 X135.815 Y103.282 E0.01006
G1 X135.497 Y102.796 E0.01820
G1 X135.095 Y102.360 E0.01860
G1 X134.628 Y101.996 E0.01857
G1 X134.118 Y101.720 E0.01818
G1 X133.819 Y101.603 E0.01007
G1 X133.267 Y101.463 E0.01785
G1 X132.949 Y101.424 E0.01003
G1 X132.396 Y101.423 E0.01736
G1 X131.785 Y101.521 E0.01938
G1 X131.222 Y101.714 E0.01866
G1 X130.713 Y101.990 E0.01818
G1 X130.452 Y102.176 E0.01005
G1 X130.024 Y102.570 E0.01822
G1 X129.667 Y103.028 E0.01820
G1 X129.503 Y103.303 E0.01006
G1 X129.270 Y103.835 E0.01820
G1 X129.124 Y104.409 E0.01859
G1 X129.076 Y104.989 E0.01823
G1 X129.088 Y105.249 E0.00818
G1 X128.954 Y105.846 F10800.000
G1 F1200
G1 X129.041 Y106.004 E0.00565
G1 X129.136 Y106.328 E0.01059
G1 X129.136 Y106.666 E0.01061
G1 X129.035 Y107.010 E0.01124
G1 X128.853 Y107.294 E0.01058
G1 X128.592 Y107.521 E0.01083
G1 X128.285 Y107.661 E0.01059
G1 X128.100 Y107.700 E0.00590
G1 X127.772 Y107.700 E0.01030
G1 X127.588 Y107.661 E0.00590
G1 X127.280 Y107.521 E0.01060
G1 X127.025 Y107.299 E0.01060
G1 X126.918 Y107.155 E0.00562
G1 X126.831 Y106.997 E0.00565
G1 X126.736 Y106.673 E0.01059
G1 X126.736 Y106.335 E0.01061
G1 X126.837 Y105.991 E0.01124
G1 X127.020 Y105.707 E0.01058
G1 X127.280 Y105.481 E0.01083
G1 X127.588 Y105.341 E0.01060
G1 X127.764 Y105.303 E0.00565
G1 X127.943 Y105.289 E0.00564
G1 X128.278 Y105.338 E0.01061
G1 X128.592 Y105.481 E0.01082
G1 X128.847 Y105.702 E0.01060
G1 X128.918 Y105.798 E0.00374
G1 X129.134 Y105.833 F10800.000
G1 F8640
G1 X129.041 Y106.004 E-0.05537
G1 X129.136 Y106.328 E-0.07799
G1 X129.136 Y106.666 E-0.07811
G1 X129.035 Y107.010 E-0.08276
G1 X128.853 Y107.294 E-0.07795
G1 X128.592 Y107.521 E-0.07973
G1 X128.285 Y107.661 E-0.07802
G1 X128.100 Y107.700 E-0.04346
G1 X127.772 Y107.700 E-0.07585
G1 X127.588 Y107.661 E-0.04346
G1 X127.323 Y107.540 E-0.06729
G1 E-0.04000 F2100.00000
G1 Z0.800 F10800.000
G1 X136.454 Y109.397
G1 Z0.200
G1 E0.80000 F2100.00000
G1 F1200
G1 X135.987 Y109.767 E0.01866
G1 X135.708 Y109.950 E0.01048
G1 X135.104 Y110.273 E0.02148
G1 X134.470 Y110.522 E0.02136
G1 X133.811 Y110.696 E0.02137
G1 X133.132 Y110.791 E0.02149
G1 X132.795 Y110.809 E0.01060
G1 X132.103 Y110.783 E0.02171
G1 X131.422 Y110.676 E0.02159
G1 X130.756 Y110.488 E0.02170
G1 X130.440 Y110.367 E0.01062
G1 X129.814 Y110.063 E0.02179
G1 X129.521 Y109.887 E0.01072
G1 X128.312 Y109.067 E0.04581
G1 X127.343 Y108.513 E0.03500
G1 X126.840 Y108.262 E0.01764
G1 X125.818 Y107.819 E0.03491
G1 X125.292 Y107.626 E0.01758
G1 X124.759 Y107.452 E0.01758
G1 X123.681 Y107.165 E0.03497
G1 X122.585 Y106.960 E0.03497
G1 X122.027 Y106.887 E0.01764
G1 X120.915 Y106.804 E0.03496
G1 X115.545 Y106.794 E0.16837
G1 X115.536 Y104.787 E0.06295
G1 X115.452 Y104.362 E0.01358
G1 X115.286 Y103.962 E0.01359
G1 X115.048 Y103.606 E0.01343
G1 X114.734 Y103.292 E0.01391
G1 X114.577 Y103.187 E0.00592
G1 X115.177 Y103.174 E0.01881
G1 X117.015 Y103.055 E0.05775
G1 X118.845 Y102.856 E0.05771
G1 X119.758 Y102.727 E0.02891
G1 X121.572 Y102.411 E0.05774
G1 X123.371 Y102.016 E0.05774
G1 X125.149 Y101.544 E0.05768
G1 X126.035 Y101.279 E0.02899
G1 X127.777 Y100.693 E0.05763
G1 X128.644 Y100.371 E0.02898
G1 X130.641 Y99.554 E0.06765
G1 X131.244 Y99.367 E0.01980
G1 X131.869 Y99.246 E0.01997
G1 X132.504 Y99.193 E0.01997
G1 X132.816 Y99.193 E0.00978
G1 X133.477 Y99.248 E0.02079
G1 X133.808 Y99.304 E0.01053
G1 X134.473 Y99.479 E0.02156
G1 X135.102 Y99.727 E0.02119
G1 X135.705 Y100.050 E0.02147
G1 X136.266 Y100.442 E0.02146
G1 X136.454 Y100.600 E0.00770
G1 X136.454 Y109.337 E0.27397
G1 X136.055 Y109.369 F10800.000
G1 F8640
G1 X135.987 Y109.767 E-0.14641
G1 X135.708 Y109.950 E-0.07720
G1 X135.104 Y110.273 E-0.15815
G1 X134.470 Y110.522 E-0.15729
G1 X133.811 Y110.696 E-0.15739
G1 X133.538 Y110.734 E-0.06355
G1 E-0.04000 F2100.00000
G1 Z0.800 F10800.000
G1 X135.964 Y107.733
G1 Z0.200
G1 E0.80000 F2100.00000
G1 F1200
G1 X135.668 Y107.438 E0.01348
G1 X135.406 Y107.723 E0.01252
G1 X135.794 Y108.112 E0.01773
G1 X135.794 Y108.661 E0.01769
G1 X135.120 Y107.986 E0.03076
G1 X134.807 Y108.222 E0.01263
G1 X135.721 Y109.136 E0.04167
G1 X135.399 Y109.363 E0.01270
G1 X134.456 Y108.420 E0.04301
G1 X134.221 Y108.547 E0.00862
G1 X134.083 Y108.595 E0.00472
G1 X135.044 Y109.556 E0.04386
G1 X134.826 Y109.673 E0.00797
G1 X134.673 Y109.734 E0.00532
G1 X133.674 Y108.735 E0.04554
G1 X133.213 Y108.822 E0.01515
G1 X134.279 Y109.888 E0.04863
G1 X134.264 Y109.894 E0.00050
G1 X133.846 Y110.004 E0.01395
G1 X132.702 Y108.860 E0.05219
G1 X132.346 Y108.860 E0.01150
G1 X132.116 Y108.822 E0.00752
G1 X133.383 Y110.089 E0.05782
G1 X133.069 Y110.133 E0.01024
G1 X132.888 Y110.143 E0.00583
G1 X131.080 Y108.335 E0.08249
G1 F8640
G1 X132.888 Y110.143 E-0.59051
G1 X133.069 Y110.133 E-0.04171
G1 X133.383 Y110.089 E-0.07334
G1 X133.216 Y109.923 E-0.05444
G1 E-0.04000 F2100.00000
G1 Z0.800 F10800.000
G1 X130.310 Y109.759
G1 Z0.200
G1 E0.80000 F2100.00000
G1 F1200
G1 X128.733 Y108.182 E0.07195
G1 X128.953 Y108.081 E0.00781
G1 X129.075 Y107.975 E0.00521
G1 X130.958 Y109.858 E0.08588
G1 X131.564 Y110.030 E0.02032
G1 X131.699 Y110.051 E0.00442
G1 X129.365 Y107.717 E0.10647
G1 X129.580 Y107.383 E0.01280
G1 X132.504 Y110.307 E0.13337
G1 F8640
G1 X130.176 Y107.980 E-0.76000
G1 E-0.04000 F2100.00000
G1 Z0.800 F10800.000
G1 X128.265 Y108.266
G1 Z0.200
G1 E0.80000 F2100.00000
G1 F1200
G1 X128.160 Y108.295 E0.00060
G1 X128.121 Y108.284 E0.00020
G1 F8640
G1 X128.160 Y108.295 E-0.00935
G1 E-0.79065 F2100.00000
G1 Z0.800 F10800.000
G1 X129.470 Y106.528
G1 Z0.200
G1 E0.80000 F2100.00000
G1 F1200
G1 X129.424 Y106.301 E0.00457
G1 X129.274 Y105.824 E0.00824
G1 X129.197 Y105.811 F10800.000
G1 F1200
G1 X129.124 Y105.721 E0.00083
G1 X129.197 Y105.811 F10800.000
G1 F1200
G1 X129.502 Y106.224 E0.00549
G1 F8640
G1 X129.197 Y105.811 E-0.11852
G1 E-0.68148 F2100.00000
G1 Z0.800 F10800.000
G1 X136.100 Y105.909
G1 Z0.200
G1 E0.80000 F2100.00000
G1 F1200
G1 X136.139 Y105.599 E0.00765
G1 X136.159 Y105.285 E0.00660
G1 X136.158 Y104.702 E0.01036
G1 X136.110 Y104.110 E0.01057
G1 F8640
G1 X136.158 Y104.702 E-0.13735
G1 X136.159 Y105.285 E-0.13456
G1 E-0.52809 F2100.00000
G1 Z0.800 F10800.000
G1 X135.964 Y101.618
G1 Z0.200
G1 E0.80000 F2100.00000
G1 F1200
G1 X134.573 Y100.227 E0.06267
G1 X134.273 Y100.109 E0.01029
G1 X133.785 Y99.981 E0.01608
G1 X135.794 Y101.990 E0.09055
G1 X135.794 Y102.532 E0.01726
G1 X133.145 Y99.882 E0.11939
G1 X132.573 Y99.853 E0.01823
G1 X134.148 Y101.428 E0.07097
G1 X133.905 Y101.333 E0.00832
G1 X133.378 Y101.200 E0.01731
G1 X132.070 Y99.891 E0.05896
G1 X131.606 Y99.969 E0.01499
G1 X132.777 Y101.141 E0.05278
G1 X132.373 Y101.140 E0.01286
G1 X132.254 Y101.159 E0.00387
G1 X131.174 Y100.079 E0.04865
G1 X130.768 Y100.215 E0.01364
G1 X131.787 Y101.234 E0.04590
G1 X131.374 Y101.363 E0.01378
G1 X130.383 Y100.373 E0.04462
G1 X129.999 Y100.530 E0.01324
G1 X130.988 Y101.519 E0.04457
G1 X130.637 Y101.710 E0.01274
G1 X129.614 Y100.687 E0.04607
G1 X129.230 Y100.844 E0.01324
G1 X130.313 Y101.928 E0.04882
G1 X130.026 Y102.183 E0.01223
G1 X128.844 Y101.001 E0.05328
G1 X128.449 Y101.148 E0.01343
G1 X129.755 Y102.454 E0.05887
G1 X129.518 Y102.759 E0.01230
G1 X128.054 Y101.295 E0.06598
G1 X127.650 Y101.432 E0.01360
G1 X129.304 Y103.086 E0.07451
G1 X129.129 Y103.453 E0.01295
G1 X127.244 Y101.569 E0.08491
G1 X126.839 Y101.705 E0.01363
G1 X128.976 Y103.843 E0.09632
G1 X128.867 Y104.275 E0.01421
G1 X126.433 Y101.841 E0.10965
G1 X126.022 Y101.972 E0.01375
G1 X128.811 Y104.761 E0.12569
G1 X128.804 Y104.852 E0.00290
G1 X128.466 Y104.698 E0.01182
G1 X128.162 Y104.654 E0.00978
G1 X125.605 Y102.097 E0.11522
G1 X125.184 Y102.218 E0.01395
G1 X127.624 Y104.658 E0.10994
G1 X127.380 Y104.710 E0.00797
G1 X127.211 Y104.787 E0.00589
G1 X124.756 Y102.331 E0.11064
G1 X124.328 Y102.445 E0.01412
G1 X126.857 Y104.974 E0.11397
G1 X126.567 Y105.226 E0.01224
G1 X123.899 Y102.559 E0.12021
G1 X123.469 Y102.670 E0.01417
G1 X126.341 Y105.542 E0.12942
G1 X126.243 Y105.695 E0.00580
G1 X126.165 Y105.908 E0.00721
G1 X123.024 Y102.768 E0.14150
G1 X122.580 Y102.865 E0.01449
G1 X126.076 Y106.361 E0.15753
G1 X126.076 Y106.768 E0.01296
G1 X126.132 Y106.959 E0.00635
G1 X122.136 Y102.963 E0.18008
G1 X121.691 Y103.060 E0.01450
G1 X125.706 Y107.075 E0.18091
G1 X124.894 Y106.805 E0.02726
G1 X121.230 Y103.140 E0.16511
G1 X120.768 Y103.221 E0.01492
G1 X124.156 Y106.609 E0.15265
G1 X123.827 Y106.521 E0.01086
G1 X123.457 Y106.452 E0.01197
G1 X120.307 Y103.301 E0.14195
G1 X119.845 Y103.381 E0.01493
G1 X122.791 Y106.327 E0.13271
G1 X122.161 Y106.239 E0.02025
