; generated by PrusaSlicer 2.1.0+win64 on 2020-04-17 at 20:43:38 UTC

; 

; external perimeters extrusion width = 0.45mm
; perimeters extrusion width = 0.45mm
; infill extrusion width = 0.45mm
; solid infill extrusion width = 0.45mm
; top infill extrusion width = 0.40mm
; first layer extrusion width = 0.42mm

M73 P0 R76
M73 Q0 S78
M201 X1000 Y1000 Z1000 E5000 ; sets maximum accelerations, mm/sec^2
M203 X200 Y200 Z12 E120 ; sets maximum feedrates, mm/sec
M204 P1250 R1250 T1250 ; sets acceleration (P, T) and retract acceleration (R), mm/sec^2
M205 X8.00 Y8.00 Z0.40 E1.50 ; sets the jerk limits, mm/sec
M205 S0 T0 ; sets the minimum extruding and travel feed rate, mm/sec
M107
M862.3 P "MK3S" ; printer model check
M862.1 P0.4 ; nozzle diameter check
M115 U3.8.0 ; tell printer latest fw version
G90 ; use absolute coordinates
M83 ; extruder relative mode
M104 S215 ; set extruder temp
M140 S60 ; set bed temp
M190 S60 ; wait for bed temp
M109 S215 ; wait for extruder temp
G28 W ; home all without mesh bed level
G80 ; mesh bed leveling
G1 Y-3.0 F1000.0 ; go outside print area
G92 E0.0
G1 X60.0 E9.0 F1000.0 ; intro line
M73 Q0 S78
M73 P0 R76
G1 X100.0 E12.5 F1000.0 ; intro line
G92 E0.0
M221 S95
G21 ; set units to millimeters
G90 ; use absolute coordinates
M83 ; use relative distances for extrusion
M900 K30 ; Filament gcode
;BEFORE_LAYER_CHANGE
G92 E0.0
;0.2


G1 E-0.80000 F2100.00000
G1 Z0.600 F10800.000
;AFTER_LAYER_CHANGE
;0.2
G1 X90.673 Y66.625
G1 Z0.200
G1 E0.80000 F2100.00000
M204 S1000
G1 F1200
G1 X91.438 Y66.238 E0.02687
G1 X112.427 Y61.056 E0.67785
G1 X138.460 Y61.038 E0.81627
G1 X139.003 Y61.107 E0.01714
G1 X158.626 Y66.246 E0.63601
G1 X159.130 Y66.476 E0.01737
G1 X159.559 Y66.826 E0.01737
G1 X159.887 Y67.273 E0.01737
G1 X160.092 Y67.787 E0.01737
G1 X160.162 Y68.335 E0.01729
G1 X160.162 Y138.155 E2.18916
G1 X159.900 Y139.774 E0.05143
G1 X159.609 Y140.654 E0.02907
G1 X159.191 Y141.550 E0.03098
G1 X158.698 Y142.348 E0.02944
G1 X158.073 Y143.134 E0.03148
G1 X157.662 Y143.478 E0.01680
G1 X157.176 Y143.713 E0.01692
G1 X137.861 Y148.889 E0.62699
G1 X137.366 Y148.961 E0.01567
G1 X111.290 Y148.946 E0.81759
G1 X92.924 Y143.757 E0.59839
G1 X92.460 Y143.564 E0.01578
G1 X92.022 Y143.243 E0.01703
G1 X91.564 Y142.717 E0.02185
G1 X91.036 Y141.959 E0.02899
G1 X90.597 Y141.145 E0.02898
G1 X90.084 Y139.734 E0.04708
G1 X89.837 Y138.208 E0.04847
G1 X89.836 Y68.339 E2.19068
G1 X89.907 Y67.794 E0.01726
G1 X90.114 Y67.280 E0.01737
G1 X90.634 Y66.671 E0.02510
G1 F8640
G1 X91.438 Y66.238 E-0.21073
G1 X93.747 Y65.668 E-0.54927
G1 E-0.04000 F2100.00000
G1 Z0.800 F10800.000
G1 X132.013 Y138.775
G1 Z0.200
G1 E0.80000 F2100.00000
G1 F1200
G1 X132.542 Y138.487 E0.01889
G1 X133.092 Y138.298 E0.01822
G1 X133.406 Y138.232 E0.01005
G1 X133.974 Y138.185 E0.01788
G1 X134.575 Y138.233 E0.01890
G1 X135.150 Y138.379 E0.01860
G1 X135.693 Y138.617 E0.01859
G1 X136.179 Y138.935 E0.01821
G1 X136.415 Y139.134 E0.00968
G1 X136.633 Y139.353 E0.00967
G1 X136.989 Y139.811 E0.01818
G1 X137.271 Y140.332 E0.01858
G1 X137.460 Y140.881 E0.01820
G1 X137.526 Y141.195 E0.01006
G1 X137.574 Y141.773 E0.01821
G1 X137.526 Y142.352 E0.01821
G1 X137.460 Y142.666 E0.01006
G1 X137.271 Y143.215 E0.01820
G1 X136.989 Y143.736 E0.01858
G1 X136.633 Y144.194 E0.01818
G1 X136.406 Y144.421 E0.01006
G1 X135.948 Y144.778 E0.01822
G1 X135.437 Y145.055 E0.01821
G1 X135.138 Y145.171 E0.01005
G1 X134.576 Y145.314 E0.01819
G1 X133.985 Y145.363 E0.01860
G1 X133.406 Y145.315 E0.01820
G1 X133.092 Y145.249 E0.01006
G1 X132.543 Y145.060 E0.01820
G1 X132.022 Y144.778 E0.01858
G1 X131.564 Y144.422 E0.01820
G1 X131.337 Y144.195 E0.01006
G1 X130.980 Y143.736 E0.01820
G1 X130.698 Y143.215 E0.01858
G1 X130.510 Y142.666 E0.01820
G1 X130.444 Y142.352 E0.01006
G1 X130.396 Y141.773 E0.01820
G1 X130.444 Y141.195 E0.01820
G1 X130.510 Y140.881 E0.01006
G1 X130.698 Y140.332 E0.01820
G1 X130.980 Y139.811 E0.01858
G1 X131.337 Y139.352 E0.01820
G1 X131.563 Y139.126 E0.01006
G1 X131.966 Y138.812 E0.01600
G1 X132.198 Y139.109 F10800.000
G1 F1200
G1 X132.695 Y138.833 E0.01782
G1 X133.192 Y138.662 E0.01650
G1 X133.461 Y138.606 E0.00859
G1 X133.975 Y138.563 E0.01618
G1 X134.513 Y138.606 E0.01693
G1 X135.027 Y138.737 E0.01662
G1 X135.513 Y138.950 E0.01663
G1 X135.954 Y139.237 E0.01650
G1 X136.350 Y139.603 E0.01689
G1 X136.672 Y140.017 E0.01648
G1 X136.925 Y140.484 E0.01662
G1 X137.096 Y140.981 E0.01649
G1 X137.152 Y141.249 E0.00859
G1 X137.196 Y141.773 E0.01649
G1 X137.152 Y142.298 E0.01649
G1 X137.096 Y142.566 E0.00859
G1 X136.925 Y143.063 E0.01649
G1 X136.672 Y143.530 E0.01663
G1 X136.350 Y143.944 E0.01648
G1 X136.156 Y144.138 E0.00859
G1 X135.741 Y144.461 E0.01649
G1 X135.278 Y144.712 E0.01650
G1 X135.023 Y144.811 E0.00859
G1 X134.514 Y144.940 E0.01648
G1 X133.985 Y144.984 E0.01663
G1 X133.461 Y144.941 E0.01649
G1 X133.192 Y144.885 E0.00859
G1 X132.695 Y144.714 E0.01649
G1 X132.229 Y144.461 E0.01662
G1 X131.814 Y144.138 E0.01649
G1 X131.620 Y143.945 E0.00860
G1 X131.297 Y143.530 E0.01649
G1 X131.045 Y143.063 E0.01662
G1 X130.874 Y142.566 E0.01649
G1 X130.817 Y142.298 E0.00859
G1 X130.774 Y141.773 E0.01649
G1 X130.817 Y141.249 E0.01649
G1 X130.874 Y140.981 E0.00859
G1 X131.045 Y140.484 E0.01649
G1 X131.297 Y140.017 E0.01662
G1 X131.620 Y139.602 E0.01649
G1 X131.814 Y139.409 E0.00859
G1 X132.150 Y139.146 E0.01339
G1 X132.178 Y138.710 F10800.000
G1 F8640
G1 X132.695 Y138.833 E-0.14496
G1 X133.192 Y138.662 E-0.12149
G1 X133.461 Y138.606 E-0.06326
G1 X133.975 Y138.563 E-0.11918
G1 X134.513 Y138.606 E-0.12470
G1 X135.027 Y138.737 E-0.12243
G1 X135.281 Y138.848 E-0.06398
G1 E-0.04000 F2100.00000
G1 Z0.800 F10800.000
G1 X133.536 Y68.755
G1 Z0.200
G1 E0.80000 F2100.00000
G1 F1200
G1 X133.143 Y68.576 E0.01355
G1 X132.928 Y68.414 E0.00844
G1 X132.645 Y68.088 E0.01356
G1 X132.465 Y67.695 E0.01355
G1 X132.412 Y67.453 E0.00777
G1 X132.395 Y67.205 E0.00777
G1 X132.456 Y66.778 E0.01355
G1 X132.636 Y66.385 E0.01355
G1 X132.784 Y66.186 E0.00778
G1 X132.960 Y66.011 E0.00777
G1 X133.323 Y65.777 E0.01355
G1 X133.738 Y65.656 E0.01355
G1 X134.006 Y65.636 E0.00843
G1 X134.434 Y65.698 E0.01356
G1 X134.846 Y65.886 E0.01422
G1 X135.174 Y66.170 E0.01357
G1 X135.321 Y66.368 E0.00773
G1 X135.440 Y66.584 E0.00776
G1 X135.562 Y67.000 E0.01358
G1 X135.562 Y67.433 E0.01359
G1 X135.508 Y67.674 E0.00772
G1 X135.424 Y67.905 E0.00772
G1 X135.189 Y68.270 E0.01360
G1 X134.846 Y68.567 E0.01421
G1 X134.453 Y68.746 E0.01356
G1 X134.210 Y68.799 E0.00778
G1 X133.964 Y68.817 E0.00775
G1 X133.595 Y68.764 E0.01167
G1 X134.157 Y68.425 F10800.000
G1 F1200
G1 X133.977 Y68.438 E0.00564
G1 X133.643 Y68.390 E0.01058
G1 X133.336 Y68.249 E0.01058
G1 X133.186 Y68.137 E0.00589
G1 X132.965 Y67.882 E0.01058
G1 X132.825 Y67.575 E0.01058
G1 X132.787 Y67.399 E0.00565
G1 X132.774 Y67.219 E0.00565
G1 X132.822 Y66.885 E0.01058
G1 X132.962 Y66.578 E0.01058
G1 X133.070 Y66.434 E0.00566
G1 X133.197 Y66.306 E0.00565
G1 X133.481 Y66.124 E0.01058
G1 X133.805 Y66.029 E0.01058
G1 X133.992 Y66.015 E0.00589
G1 X134.327 Y66.063 E0.01059
G1 X134.641 Y66.207 E0.01082
G1 X134.896 Y66.428 E0.01058
G1 X135.003 Y66.572 E0.00563
G1 X135.090 Y66.730 E0.00565
G1 X135.185 Y67.054 E0.01059
G1 X135.185 Y67.392 E0.01059
G1 X135.146 Y67.567 E0.00564
G1 X135.084 Y67.736 E0.00563
G1 X134.901 Y68.020 E0.01060
G1 X134.641 Y68.246 E0.01082
G1 X134.333 Y68.386 E0.01059
G1 X134.215 Y68.412 E0.00379
G1 X134.094 Y68.593 F10800.000
G1 F8640
G1 X133.977 Y68.438 E-0.05528
G1 X133.643 Y68.390 E-0.07790
G1 X133.336 Y68.249 E-0.07789
G1 X133.186 Y68.137 E-0.04339
G1 X132.965 Y67.882 E-0.07793
G1 X132.825 Y67.575 E-0.07790
G1 X132.787 Y67.399 E-0.04162
G1 X132.774 Y67.219 E-0.04162
G1 X132.822 Y66.885 E-0.07790
G1 X132.962 Y66.578 E-0.07789
G1 X133.070 Y66.434 E-0.04165
G1 X133.197 Y66.306 E-0.04162
G1 X133.297 Y66.242 E-0.02740
G1 E-0.04000 F2100.00000
G1 Z0.800 F10800.000
G1 X138.185 Y63.814
G1 Z0.200
G1 E0.80000 F2100.00000
G1 F1200
G1 X138.393 Y64.086 E0.01076
G1 X138.721 Y64.608 E0.01933
G1 X138.987 Y65.159 E0.01916
G1 X139.094 Y65.439 E0.00942
G1 X139.184 Y65.721 E0.00927
G1 X139.320 Y66.317 E0.01917
G1 X139.390 Y66.929 E0.01931
G1 X139.398 Y67.234 E0.00957
G1 X139.398 Y141.757 E2.33659
G1 X139.361 Y142.399 E0.02019
G1 X139.252 Y143.017 E0.01965
G1 X139.075 Y143.613 E0.01950
G1 X138.822 Y144.201 E0.02007
G1 X138.682 Y144.462 E0.00931
G1 X138.334 Y144.995 E0.01993
G1 X137.933 Y145.476 E0.01964
G1 X137.478 Y145.907 E0.01965
G1 X137.106 Y146.186 E0.01459
G1 X130.864 Y146.186 E0.19572
G1 X130.492 Y145.907 E0.01459
G1 X130.037 Y145.476 E0.01965
G1 X129.636 Y144.994 E0.01965
G1 X129.292 Y144.470 E0.01966
G1 X129.012 Y143.909 E0.01966
G1 X128.798 Y143.320 E0.01966
G1 X128.654 Y142.710 E0.01965
G1 X128.582 Y142.087 E0.01965
G1 X128.572 Y67.243 E2.34668
G1 X128.607 Y66.620 E0.01956
G1 X128.709 Y66.022 E0.01904
G1 X128.879 Y65.430 E0.01930
G1 X128.982 Y65.162 E0.00901
G1 X129.252 Y64.600 E0.01956
G1 X129.399 Y64.352 E0.00901
G1 X129.785 Y63.814 E0.02080
G1 X138.125 Y63.814 E0.26147
G1 X138.360 Y63.436 F10800.000
G1 F1200
G1 X138.704 Y63.872 E0.01742
G1 X139.051 Y64.425 E0.02048
G1 X139.333 Y65.009 E0.02032
G1 X139.450 Y65.315 E0.01027
G1 X139.548 Y65.622 E0.01010
G1 X139.692 Y66.254 E0.02032
G1 X139.766 Y66.903 E0.02048
G1 X139.775 Y67.229 E0.01024
G1 X139.775 Y141.767 E2.33709
G1 X139.736 Y142.443 E0.02122
G1 X139.620 Y143.103 E0.02102
G1 X139.430 Y143.741 E0.02087
G1 X139.162 Y144.365 E0.02128
G1 X139.006 Y144.655 E0.01033
G1 X138.638 Y145.219 E0.02112
G1 X138.208 Y145.734 E0.02102
G1 X137.722 Y146.196 E0.02103
G1 X137.232 Y146.564 E0.01922
G1 X130.738 Y146.564 E0.20360
G1 X130.248 Y146.196 E0.01922
G1 X129.762 Y145.734 E0.02102
G1 X129.332 Y145.219 E0.02103
G1 X128.965 Y144.658 E0.02103
G1 X128.665 Y144.058 E0.02103
G1 X128.436 Y143.428 E0.02103
G1 X128.282 Y142.775 E0.02103
G1 X128.205 Y142.109 E0.02103
G1 X128.195 Y67.232 E2.34770
G1 X128.232 Y66.578 E0.02055
G1 X128.340 Y65.937 E0.02037
G1 X128.521 Y65.310 E0.02046
G1 X128.635 Y65.012 E0.01001
G1 X128.920 Y64.422 E0.02055
G1 X129.082 Y64.147 E0.01000
G1 X129.458 Y63.616 E0.02040
G1 X129.610 Y63.436 E0.00738
G1 X138.300 Y63.436 E0.27245
G1 X138.331 Y63.835 F10800.000
G1 F8640
G1 X138.704 Y63.872 E-0.13730
G1 X139.051 Y64.425 E-0.15081
G1 X139.333 Y65.009 E-0.14966
G1 X139.450 Y65.315 E-0.07560
G1 X139.548 Y65.622 E-0.07440
G1 X139.692 Y66.254 E-0.14966
G1 X139.703 Y66.351 E-0.02256
G1 E-0.04000 F2100.00000
G1 Z0.800 F10800.000
G1 X139.025 Y65.596
G1 Z0.200
G1 E0.80000 F2100.00000
G1 F1200
G1 X137.525 Y64.096 E0.06688
G1 X136.989 Y64.096 E0.01690
G1 X138.976 Y66.084 E0.08860
G1 X139.041 Y66.365 E0.00910
G1 X139.082 Y66.725 E0.01142
G1 X136.453 Y64.096 E0.11719
G1 X135.917 Y64.096 E0.01690
G1 X139.115 Y67.295 E0.14258
G1 X139.115 Y67.831 E0.01690
G1 X135.381 Y64.096 E0.16649
G1 X134.844 Y64.096 E0.01690
G1 X139.115 Y68.367 E0.19039
G1 X139.115 Y68.903 E0.01690
G1 X134.308 Y64.096 E0.21429
G1 X133.772 Y64.096 E0.01690
G1 X139.115 Y69.439 E0.23819
G1 X139.115 Y69.975 E0.01690
G1 X135.739 Y66.600 E0.15049
G1 X135.845 Y66.959 E0.01181
G1 X135.845 Y67.241 E0.00889
G1 X139.115 Y70.512 E0.14579
G1 X139.115 Y71.048 E0.01690
G1 X135.788 Y67.720 E0.14833
G1 X135.678 Y68.031 E0.01039
G1 X135.633 Y68.102 E0.00264
G1 X139.115 Y71.584 E0.15523
G1 X139.115 Y72.120 E0.01690
G1 X135.423 Y68.428 E0.16458
G1 X135.143 Y68.684 E0.01196
G1 X139.115 Y72.656 E0.17708
G1 X139.115 Y73.192 E0.01690
G1 X134.815 Y68.892 E0.19171
G1 X134.543 Y69.016 E0.00943
G1 X134.428 Y69.041 E0.00371
G1 X139.115 Y73.728 E0.20897
G1 X139.115 Y74.265 E0.01690
G1 X133.750 Y68.900 E0.23916
G1 F8640
G1 X136.078 Y71.228 E-0.76000
G1 E-0.04000 F2100.00000
G1 Z0.800 F10800.000
G1 X135.069 Y65.930
G1 Z0.200
G1 E0.80000 F2100.00000
G1 F1200
G1 X133.236 Y64.096 E0.08174
G1 X132.700 Y64.096 E0.01690
G1 X133.960 Y65.356 E0.05617
G1 X133.687 Y65.376 E0.00861
G1 X133.498 Y65.431 E0.00620
G1 X132.164 Y64.096 E0.05951
G1 X131.627 Y64.096 E0.01690
G1 X133.110 Y65.578 E0.06607
G1 X132.783 Y65.788 E0.01223
G1 X131.091 Y64.096 E0.07542
G1 X130.555 Y64.096 E0.01690
G1 X132.523 Y66.064 E0.08771
G1 X132.391 Y66.240 E0.00692
G1 X132.319 Y66.397 E0.00544
G1 X130.019 Y64.096 E0.10255
G1 X129.931 Y64.096 E0.00279
G1 X129.743 Y64.357 E0.01011
G1 X132.170 Y66.783 E0.10817
G1 X132.110 Y67.195 E0.01312
G1 X132.115 Y67.265 E0.00221
G1 X129.532 Y64.682 E0.11516
G1 X129.354 Y65.040 E0.01261
G1 X139.115 Y74.801 E0.43515
G1 X139.115 Y75.337 E0.01690
G1 X129.189 Y65.411 E0.44251
G1 X129.061 Y65.819 E0.01349
G1 X139.115 Y75.873 E0.44821
G1 X139.115 Y76.409 E0.01690
G1 X128.957 Y66.251 E0.45288
G1 X128.885 Y66.715 E0.01481
G1 X139.115 Y76.945 E0.45608
G1 X139.115 Y77.482 E0.01690
G1 X128.856 Y67.223 E0.45735
G1 X128.855 Y67.758 E0.01685
G1 X139.115 Y78.018 E0.45741
G1 X139.115 Y78.554 E0.01690
G1 X128.855 Y68.294 E0.45741
G1 X128.855 Y68.830 E0.01690
G1 X139.115 Y79.090 E0.45741
G1 X139.115 Y79.626 E0.01690
G1 X128.855 Y69.366 E0.45741
G1 X128.855 Y69.902 E0.01690
G1 X139.115 Y80.162 E0.45740
G1 X139.115 Y80.699 E0.01690
G1 X128.855 Y70.439 E0.45740
G1 X128.855 Y70.975 E0.01690
G1 X139.115 Y81.235 E0.45740
G1 X139.115 Y81.771 E0.01690
G1 X128.855 Y71.511 E0.45739
M73 Q1 S77
G1 X128.855 Y72.047 E0.01690
G1 X139.115 Y82.307 E0.45739
M73 P1 R75
G1 X139.115 Y82.843 E0.01690
G1 X128.855 Y72.584 E0.45739
G1 X128.855 Y73.120 E0.01690
G1 X139.115 Y83.379 E0.45738
G1 X139.115 Y83.915 E0.01690
G1 X128.856 Y73.656 E0.45738
G1 X128.856 Y74.192 E0.01690
G1 X139.115 Y84.452 E0.45738
G1 X139.115 Y84.988 E0.01690
G1 X128.856 Y74.728 E0.45737
G1 X128.856 Y75.265 E0.01690
G1 X139.115 Y85.524 E0.45737
G1 X139.115 Y86.060 E0.01690
G1 X128.856 Y75.801 E0.45737
G1 X128.856 Y76.337 E0.01690
G1 X139.115 Y86.596 E0.45736
G1 X139.115 Y87.132 E0.01690
G1 X128.856 Y76.873 E0.45736
G1 X128.856 Y77.410 E0.01690
G1 X139.115 Y87.669 E0.45736
G1 X139.115 Y88.205 E0.01690
G1 X128.856 Y77.946 E0.45735
G1 X128.856 Y78.482 E0.01690
G1 X139.115 Y88.741 E0.45735
G1 X139.115 Y89.277 E0.01690
G1 X128.856 Y79.018 E0.45735
G1 X128.856 Y79.555 E0.01690
G1 X139.115 Y89.813 E0.45734
G1 X139.115 Y90.349 E0.01690
G1 X128.856 Y80.091 E0.45734
G1 X128.856 Y80.627 E0.01690
G1 X139.115 Y90.885 E0.45734
G1 X139.115 Y91.422 E0.01690
G1 X128.857 Y81.163 E0.45733
G1 X128.857 Y81.699 E0.01690
G1 X139.115 Y91.958 E0.45733
G1 X139.115 Y92.494 E0.01690
G1 X128.857 Y82.236 E0.45733
G1 X128.857 Y82.772 E0.01690
G1 X139.115 Y93.030 E0.45732
G1 X139.115 Y93.566 E0.01690
G1 X128.857 Y83.308 E0.45732
G1 X128.857 Y83.844 E0.01690
G1 X139.115 Y94.102 E0.45732
G1 X139.115 Y94.639 E0.01690
G1 X128.857 Y84.381 E0.45731
G1 X128.857 Y84.917 E0.01690
G1 X139.115 Y95.175 E0.45731
G1 X139.115 Y95.711 E0.01690
G1 X128.857 Y85.453 E0.45731
G1 X128.857 Y85.989 E0.01690
G1 X139.115 Y96.247 E0.45731
G1 X139.115 Y96.783 E0.01690
G1 X128.857 Y86.526 E0.45730
G1 X128.857 Y87.062 E0.01690
G1 X139.115 Y97.319 E0.45730
G1 X139.115 Y97.855 E0.01690
G1 X128.857 Y87.598 E0.45730
G1 X128.857 Y88.134 E0.01690
G1 X139.115 Y98.392 E0.45729
G1 X139.115 Y98.928 E0.01690
G1 X128.858 Y88.670 E0.45729
G1 X128.858 Y89.207 E0.01690
G1 X139.115 Y99.464 E0.45729
G1 X139.115 Y100.000 E0.01690
G1 X128.858 Y89.743 E0.45728
G1 X128.858 Y90.279 E0.01690
G1 X139.115 Y100.536 E0.45728
G1 X139.115 Y101.072 E0.01690
G1 X128.858 Y90.815 E0.45728
G1 X128.858 Y91.352 E0.01690
G1 X139.115 Y101.609 E0.45727
G1 X139.115 Y102.145 E0.01690
G1 X128.858 Y91.888 E0.45727
G1 X128.858 Y92.424 E0.01690
G1 X139.115 Y102.681 E0.45727
G1 X139.115 Y103.217 E0.01690
G1 X128.858 Y92.960 E0.45726
G1 X128.858 Y93.496 E0.01690
G1 X139.115 Y103.753 E0.45726
G1 X139.115 Y104.289 E0.01690
G1 X128.858 Y94.033 E0.45726
G1 X128.858 Y94.569 E0.01690
G1 X139.115 Y104.825 E0.45725
G1 X139.115 Y105.362 E0.01690
G1 X128.858 Y95.105 E0.45725
G1 X128.859 Y95.641 E0.01690
G1 X139.115 Y105.898 E0.45725
G1 X139.115 Y106.434 E0.01690
G1 X128.859 Y96.178 E0.45724
G1 X128.859 Y96.714 E0.01690
G1 X139.115 Y106.970 E0.45724
G1 X139.115 Y107.506 E0.01690
G1 X128.859 Y97.250 E0.45724
G1 X128.859 Y97.786 E0.01690
G1 X139.115 Y108.042 E0.45723
G1 X139.115 Y108.579 E0.01690
