; generated by PrusaSlicer 2.1.0+win64 on 2020-04-17 at 20:45:38 UTC

; 

; external perimeters extrusion width = 0.45mm
; perimeters extrusion width = 0.45mm
; infill extrusion width = 0.45mm
; solid infill extrusion width = 0.45mm
; top infill extrusion width = 0.40mm
; first layer extrusion width = 0.42mm

M73 P0 R13
M73 Q0 S13
M201 X1000 Y1000 Z1000 E5000 ; sets maximum accelerations, mm/sec^2
M203 X200 Y200 Z12 E120 ; sets maximum feedrates, mm/sec
M204 P1250 R1250 T1250 ; sets acceleration (P, T) and retract acceleration (R), mm/sec^2
M205 X8.00 Y8.00 Z0.40 E1.50 ; sets the jerk limits, mm/sec
M205 S0 T0 ; sets the minimum extruding and travel feed rate, mm/sec
M107
M862.3 P "MK3S" ; printer model check
M862.1 P0.4 ; nozzle diameter check
M115 U3.8.0 ; tell printer latest fw version
G90 ; use absolute coordinates
M83 ; extruder relative mode
M104 S215 ; set extruder temp
M140 S60 ; set bed temp
M190 S60 ; wait for bed temp
M109 S215 ; wait for extruder temp
G28 W ; home all without mesh bed level
G80 ; mesh bed leveling
G1 Y-3.0 F1000.0 ; go outside print area
G92 E0.0
G1 X60.0 E9.0 F1000.0 ; intro line
M73 Q0 S13
M73 P0 R13
G1 X100.0 E12.5 F1000.0 ; intro line
G92 E0.0
M221 S95
G21 ; set units to millimeters
G90 ; use absolute coordinates
M83 ; use relative distances for extrusion
M900 K30 ; Filament gcode
;BEFORE_LAYER_CHANGE
G92 E0.0
;0.2


G1 E-0.80000 F2100.00000
G1 Z0.600 F10800.000
;AFTER_LAYER_CHANGE
;0.2
G1 X108.172 Y88.630
G1 Z0.200
G1 E0.80000 F2100.00000
M204 S1000
G1 F1200
G1 X109.061 Y88.439 E0.02851
G1 X114.149 Y88.438 E0.15953
G1 X115.621 Y88.566 E0.04632
G1 X137.533 Y92.242 E0.69665
G1 X139.106 Y92.709 E0.05145
G1 X140.626 Y93.387 E0.05219
G1 X142.040 Y94.259 E0.05207
G1 X143.321 Y95.304 E0.05182
G1 X144.027 Y96.043 E0.03208
G1 X144.484 Y96.781 E0.02721
G1 X144.747 Y97.494 E0.02383
G1 X144.880 Y98.400 E0.02869
G1 X144.874 Y113.298 E0.46713
G1 X144.779 Y113.933 E0.02012
G1 X144.528 Y114.685 E0.02487
G1 X144.223 Y115.241 E0.01988
G1 X143.759 Y115.824 E0.02338
G1 X142.972 Y116.463 E0.03177
G1 X142.145 Y116.853 E0.02869
G1 X128.051 Y121.540 E0.46569
G1 X108.543 Y121.568 E0.61167
G1 X107.650 Y121.378 E0.02863
G1 X106.880 Y120.887 E0.02863
G1 X106.082 Y120.060 E0.03600
G1 X105.576 Y119.297 E0.02872
G1 X105.223 Y118.415 E0.02979
G1 X105.059 Y117.440 E0.03101
G1 X105.057 Y112.944 E0.14095
G1 X105.581 Y92.600 E0.63809
G1 X105.669 Y91.912 E0.02175
G1 X106.042 Y90.826 E0.03598
G1 X106.547 Y90.021 E0.02981
G1 X107.476 Y89.055 E0.04203
G1 X108.121 Y88.661 E0.02369
G1 X108.344 Y88.967 F10800.000
G1 F1200
G1 X109.089 Y88.816 E0.02383
G1 X114.149 Y88.815 E0.15864
G1 X115.563 Y88.939 E0.04450
G1 X137.442 Y92.608 E0.69558
G1 X138.976 Y93.062 E0.05017
G1 X140.447 Y93.719 E0.05051
G1 X141.822 Y94.566 E0.05062
G1 X143.053 Y95.570 E0.04982
G1 X143.725 Y96.269 E0.03040
G1 X144.143 Y96.942 E0.02484
G1 X144.379 Y97.579 E0.02129
G1 X144.503 Y98.406 E0.02621
G1 X144.498 Y113.262 E0.46581
G1 X144.414 Y113.837 E0.01821
G1 X144.186 Y114.527 E0.02279
G1 X143.913 Y115.027 E0.01787
G1 X143.493 Y115.557 E0.02119
G1 X142.769 Y116.146 E0.02928
G1 X142.012 Y116.501 E0.02621
G1 X128.006 Y121.165 E0.46285
G1 X108.563 Y121.191 E0.60962
G1 X107.802 Y121.033 E0.02439
G1 X107.147 Y120.620 E0.02428
G1 X106.380 Y119.829 E0.03454
G1 X105.915 Y119.132 E0.02625
G1 X105.587 Y118.317 E0.02755
G1 X105.435 Y117.419 E0.02858
G1 X105.434 Y112.952 E0.14003
G1 X105.958 Y92.610 E0.63802
G1 X106.035 Y92.004 E0.01915
G1 X106.382 Y90.988 E0.03367
G1 X106.845 Y90.253 E0.02722
G1 X107.721 Y89.342 E0.03965
G1 X108.293 Y88.998 E0.02093
G1 F8640
G1 X109.089 Y88.816 E-0.18859
G1 X111.564 Y88.815 E-0.57141
G1 E-0.04000 F2100.00000
G1 Z0.800 F10800.000
G1 X140.309 Y112.230
G1 Z0.200
G1 E0.80000 F2100.00000
G1 F1200
G1 X140.464 Y112.146 E0.00553
G1 X140.762 Y112.071 E0.00966
G1 X141.078 Y112.097 E0.00994
G1 X141.369 Y112.224 E0.00994
G1 X141.595 Y112.433 E0.00966
G1 X141.692 Y112.580 E0.00553
G1 X141.792 Y112.872 E0.00966
G1 X141.792 Y113.189 E0.00994
G1 X141.692 Y113.480 E0.00966
G1 X141.595 Y113.628 E0.00553
G1 X141.375 Y113.830 E0.00938
G1 X141.220 Y113.914 E0.00553
G1 X140.930 Y113.988 E0.00938
G1 X140.754 Y113.988 E0.00553
G1 X140.455 Y113.912 E0.00966
G1 X140.190 Y113.739 E0.00994
G1 X140.000 Y113.496 E0.00966
G1 X139.930 Y113.334 E0.00553
G1 X139.879 Y113.030 E0.00966
G1 X139.931 Y112.718 E0.00994
G1 X140.082 Y112.439 E0.00994
G1 X140.265 Y112.271 E0.00778
G1 X140.289 Y112.055 F10800.000
G1 X140.687 Y111.701
G1 F1200
G1 X140.326 Y111.792 E0.01170
G1 X140.088 Y111.921 E0.00847
G1 X139.780 Y112.204 E0.01311
G1 X139.570 Y112.593 E0.01388
G1 X139.499 Y113.016 E0.01344
G1 X139.249 Y112.823 E0.00991
G1 X138.557 Y112.375 E0.02584
G1 X138.173 Y112.168 E0.01368
G1 X137.419 Y111.840 E0.02578
G1 X136.608 Y111.588 E0.02665
G1 X135.800 Y111.433 E0.02578
G1 X135.357 Y111.384 E0.01399
G1 X134.533 Y111.363 E0.02585
G1 X134.097 Y111.389 E0.01368
G1 X133.283 Y111.503 E0.02578
G1 X132.459 Y111.713 E0.02665
G1 X131.690 Y112.002 E0.02578
G1 X130.917 Y112.394 E0.02717
G1 X130.221 Y112.850 E0.02609
G1 X129.573 Y113.385 E0.02634
G1 X129.001 Y113.975 E0.02577
G1 X128.717 Y114.319 E0.01399
G1 X128.248 Y114.997 E0.02585
G1 X128.034 Y115.368 E0.01343
G1 X127.841 Y115.750 E0.01343
G1 X127.528 Y116.522 E0.02609
G1 X127.302 Y117.322 E0.02609
G1 X127.219 Y117.751 E0.01368
G1 X127.146 Y118.411 E0.02082
G1 X125.417 Y118.411 E0.05420
G1 X125.432 Y118.083 E0.01028
G1 X125.551 Y117.227 E0.02709
G1 X125.749 Y116.386 E0.02711
G1 X126.024 Y115.566 E0.02711
G1 X126.373 Y114.775 E0.02711
G1 X126.794 Y114.019 E0.02711
G1 X127.289 Y113.297 E0.02747
G1 X127.839 Y112.635 E0.02697
G1 X128.129 Y112.332 E0.01314
G1 X128.773 Y111.745 E0.02733
G1 X129.463 Y111.224 E0.02711
G1 X130.204 Y110.765 E0.02733
G1 X130.574 Y110.570 E0.01314
G1 X131.372 Y110.218 E0.02733
G1 X132.192 Y109.943 E0.02711
G1 X133.033 Y109.745 E0.02711
G1 X133.890 Y109.625 E0.02711
G1 X134.765 Y109.586 E0.02748
G1 X135.584 Y109.622 E0.02572
G1 X136.415 Y109.733 E0.02627
G1 X136.821 Y109.815 E0.01298
G1 X137.625 Y110.034 E0.02613
G1 X138.016 Y110.169 E0.01298
G1 X138.785 Y110.492 E0.02614
G1 X139.145 Y110.672 E0.01264
G1 X139.874 Y111.099 E0.02647
G1 X140.216 Y111.332 E0.01298
G1 X140.640 Y111.664 E0.01689
G1 F8640
G1 X140.326 Y111.792 E-0.07847
G1 X140.088 Y111.921 E-0.06240
G1 X139.780 Y112.204 E-0.09652
G1 X139.570 Y112.593 E-0.10225
G1 X139.499 Y113.016 E-0.09900
G1 X139.249 Y112.823 E-0.07300
G1 X138.557 Y112.375 E-0.19026
G1 X138.336 Y112.256 E-0.05810
G1 E-0.04000 F2100.00000
G1 Z0.800 F10800.000
G1 X127.505 Y118.596
G1 Z0.200
G1 E0.80000 F2100.00000
G1 F1200
G1 X127.500 Y118.788 E0.00603
G1 X125.023 Y118.788 E0.07764
G1 X125.056 Y118.049 E0.02319
G1 X125.180 Y117.158 E0.02820
G1 X125.386 Y116.282 E0.02821
G1 X125.672 Y115.429 E0.02821
G1 X126.035 Y114.606 E0.02821
G1 X126.473 Y113.821 E0.02820
G1 X126.988 Y113.069 E0.02857
G1 X127.558 Y112.384 E0.02793
G1 X127.865 Y112.062 E0.01396
G1 X128.532 Y111.455 E0.02828
G1 X129.250 Y110.912 E0.02821
G1 X130.016 Y110.438 E0.02828
G1 X130.410 Y110.230 E0.01396
G1 X131.235 Y109.866 E0.02828
G1 X132.088 Y109.580 E0.02821
G1 X132.964 Y109.374 E0.02821
G1 X133.855 Y109.250 E0.02820
G1 X134.765 Y109.208 E0.02856
G1 X135.618 Y109.246 E0.02677
G1 X136.477 Y109.361 E0.02719
G1 X136.908 Y109.448 E0.01376
G1 X137.736 Y109.673 E0.02692
G1 X138.151 Y109.816 E0.01376
G1 X138.942 Y110.149 E0.02692
G1 X139.325 Y110.341 E0.01342
G1 X140.075 Y110.780 E0.02726
G1 X140.438 Y111.027 E0.01376
G1 X141.113 Y111.555 E0.02685
G1 X141.739 Y112.139 E0.02687
G1 X141.930 Y112.387 E0.00981
G1 X142.052 Y112.666 E0.00955
G1 X142.104 Y112.967 E0.00955
G1 X142.082 Y113.277 E0.00975
G1 X142.047 Y113.412 E0.00439
G1 X141.917 Y113.694 E0.00974
G1 X141.723 Y113.935 E0.00968
G1 X141.480 Y114.122 E0.00962
G1 X141.355 Y114.186 E0.00439
G1 X141.057 Y114.275 E0.00975
G1 X140.747 Y114.291 E0.00975
G1 X140.608 Y114.273 E0.00439
G1 X140.306 Y114.175 E0.00995
G1 X140.177 Y114.106 E0.00459
G1 X140.052 Y114.018 E0.00477
G1 X139.351 Y113.379 E0.02976
G1 X139.031 Y113.131 E0.01270
G1 X138.365 Y112.700 E0.02486
G1 X138.008 Y112.508 E0.01270
G1 X137.288 Y112.194 E0.02464
G1 X136.516 Y111.954 E0.02534
G1 X135.744 Y111.806 E0.02464
G1 X135.332 Y111.761 E0.01301
G1 X134.539 Y111.741 E0.02486
G1 X134.134 Y111.764 E0.01270
G1 X133.356 Y111.874 E0.02464
G1 X132.573 Y112.073 E0.02534
G1 X131.837 Y112.350 E0.02464
G1 X131.111 Y112.718 E0.02553
G1 X130.445 Y113.154 E0.02495
G1 X129.830 Y113.663 E0.02504
G1 X129.282 Y114.226 E0.02464
G1 X129.018 Y114.547 E0.01301
G1 X128.567 Y115.199 E0.02486
G1 X128.366 Y115.547 E0.01262
G1 X128.185 Y115.907 E0.01262
G1 X127.886 Y116.644 E0.02495
G1 X127.669 Y117.410 E0.02495
G1 X127.592 Y117.808 E0.01271
G1 X127.511 Y118.536 E0.02298
G1 X127.332 Y118.681 F10800.000
G1 F8640
G1 X127.500 Y118.788 E-0.05821
G1 X125.023 Y118.788 E-0.57178
G1 X125.048 Y118.225 E-0.13000
G1 E-0.04000 F2100.00000
G1 Z0.800 F10800.000
G1 X126.307 Y118.298
G1 Z0.200
G1 E0.80000 F2100.00000
G1 F1200
G1 X125.763 Y117.753 E0.02445
G1 X125.829 Y117.279 E0.01521
G1 X126.678 Y118.128 E0.03813
G1 X126.893 Y118.128 E0.00682
G1 X126.925 Y117.835 E0.00937
G1 X125.932 Y116.842 E0.04461
G1 X126.039 Y116.409 E0.01417
G1 X127.004 Y117.374 E0.04335
G1 X127.115 Y116.944 E0.01409
G1 X126.175 Y116.004 E0.04224
G1 X126.316 Y115.604 E0.01346
G1 X127.234 Y116.523 E0.04126
G1 X127.382 Y116.130 E0.01333
G1 X126.481 Y115.230 E0.04046
G1 X126.626 Y114.901 E0.01142
G1 X126.650 Y114.858 E0.00155
G1 X127.538 Y115.746 E0.03988
G1 X127.712 Y115.379 E0.01289
G1 X126.843 Y114.511 E0.03901
G1 X127.034 Y114.168 E0.01246
G1 X127.903 Y115.030 E0.03886
G1 X128.111 Y114.698 E0.01245
G1 X127.257 Y113.844 E0.03837
G1 X127.477 Y113.524 E0.01235
G1 X128.332 Y114.379 E0.03842
G1 X128.559 Y114.066 E0.01229
G1 X127.718 Y113.224 E0.03782
G1 X127.963 Y112.929 E0.01219
G1 X128.805 Y113.771 E0.03782
G1 X129.071 Y113.497 E0.01214
G1 X128.220 Y112.646 E0.03822
G1 X128.495 Y112.381 E0.01214
G1 X129.337 Y113.223 E0.03782
G1 X129.628 Y112.973 E0.01217
G1 X128.778 Y112.123 E0.03820
G1 X129.070 Y111.875 E0.01218
G1 X129.924 Y112.729 E0.03837
G1 X130.237 Y112.502 E0.01229
G1 X129.378 Y111.642 E0.03860
G1 X129.691 Y111.415 E0.01229
G1 X130.563 Y112.288 E0.03919
G1 X130.901 Y112.085 E0.01251
G1 X130.025 Y111.209 E0.03937
G1 X130.344 Y111.011 E0.01194
G1 X130.359 Y111.003 E0.00054
G1 X131.260 Y111.903 E0.04045
G1 X131.622 Y111.725 E0.01283
G1 X130.714 Y110.817 E0.04080
G1 X131.089 Y110.652 E0.01302
G1 X132.015 Y111.578 E0.04160
G1 X132.411 Y111.433 E0.01339
G1 X131.464 Y110.486 E0.04255
G1 X131.868 Y110.350 E0.01354
G1 X132.841 Y111.324 E0.04375
G1 X133.277 Y111.218 E0.01422
G1 X132.273 Y110.214 E0.04511
G1 X132.710 Y110.111 E0.01428
G1 X133.750 Y111.152 E0.04674
G1 X134.236 Y111.097 E0.01553
G1 X133.153 Y110.014 E0.04868
G1 X133.627 Y109.948 E0.01521
G1 X134.766 Y111.086 E0.05116
G1 X135.320 Y111.100 E0.01761
G1 X134.118 Y109.898 E0.05401
G1 X134.635 Y109.875 E0.01644
G1 X135.929 Y111.169 E0.05817
G1 X136.599 Y111.298 E0.02166
G1 X135.188 Y109.888 E0.06339
G1 X135.559 Y109.904 E0.01182
G1 X135.773 Y109.933 E0.00685
G1 X137.369 Y111.529 E0.07171
G1 X137.518 Y111.575 E0.00495
G1 X138.293 Y111.912 E0.02685
G1 X136.399 Y110.018 E0.08509
G1 X137.107 Y110.186 E0.02312
G1 X139.342 Y112.420 E0.10039
G1 X139.531 Y112.070 E0.01266
G1 X137.884 Y110.422 E0.07402
G1 X138.835 Y110.833 E0.03293
G1 X139.922 Y111.920 E0.04882
G1 X140.874 Y111.870 F10800.000
G1 F1200
G1 X141.012 Y111.858 E0.00092
G1 X141.150 Y111.847 E0.00125
G1 F8640
G1 X141.012 Y111.858 E-0.03192
G1 E-0.76808 F2100.00000
G1 Z0.800 F10800.000
G1 X139.688 Y113.158
G1 Z0.200
G1 E0.80000 F2100.00000
G1 F1200
G1 X139.688 Y113.358 E0.00133
G1 X139.758 Y113.474 E0.00090
G1 F8640
G1 X139.688 Y113.358 E-0.03142
G1 X139.688 Y113.158 E-0.04604
G1 E-0.72253 F2100.00000
G1 Z0.800 F10800.000
G1 X111.651 Y116.953
G1 Z0.200
G1 E0.80000 F2100.00000
G1 F1200
G1 X111.462 Y117.365 E0.01423
G1 X111.178 Y117.692 E0.01357
G1 X110.981 Y117.840 E0.00773
G1 X110.764 Y117.959 E0.00775
G1 X110.348 Y118.081 E0.01358
G1 X109.915 Y118.081 E0.01359
G1 X109.675 Y118.027 E0.00772
G1 X109.443 Y117.942 E0.00772
G1 X109.079 Y117.708 E0.01360
G1 X108.782 Y117.365 E0.01421
G1 X108.602 Y116.972 E0.01356
G1 X108.545 Y116.708 E0.00845
G1 X108.545 Y116.298 E0.01285
G1 X108.602 Y116.035 E0.00844
G1 X108.782 Y115.642 E0.01356
G1 X109.065 Y115.315 E0.01358
G1 X109.263 Y115.168 E0.00773
G1 X109.480 Y115.048 E0.00775
G1 X109.895 Y114.926 E0.01358
G1 X110.329 Y114.926 E0.01359
G1 X110.569 Y114.980 E0.00772
G1 X110.800 Y115.065 E0.00772
G1 X111.165 Y115.299 E0.01360
G1 X111.462 Y115.642 E0.01421
G1 X111.642 Y116.035 E0.01357
G1 X111.694 Y116.278 E0.00779
G1 X111.712 Y116.525 E0.00775
G1 X111.659 Y116.893 E0.01168
G1 X111.320 Y116.332 F10800.000
G1 F1200
G1 X111.333 Y116.511 E0.00564
G1 X111.285 Y116.845 E0.01059
G1 X111.142 Y117.159 E0.01082
G1 X110.920 Y117.414 E0.01059
G1 X110.776 Y117.522 E0.00564
G1 X110.618 Y117.609 E0.00565
G1 X110.294 Y117.704 E0.01059
G1 X109.956 Y117.704 E0.01059
G1 X109.781 Y117.664 E0.00564
G1 X109.612 Y117.603 E0.00563
G1 X109.328 Y117.420 E0.01060
G1 X109.102 Y117.159 E0.01081
G1 X108.962 Y116.852 E0.01058
G1 X108.922 Y116.668 E0.00591
G1 X108.922 Y116.339 E0.01032
G1 X108.962 Y116.155 E0.00590
G1 X109.102 Y115.848 E0.01058
G1 X109.323 Y115.593 E0.01059
G1 X109.468 Y115.485 E0.00564
G1 X109.625 Y115.398 E0.00565
G1 X109.949 Y115.304 E0.01059
G1 X110.287 Y115.304 E0.01059
G1 X110.463 Y115.343 E0.00564
G1 X110.631 Y115.404 E0.00563
G1 X110.916 Y115.587 E0.01060
G1 X111.142 Y115.848 E0.01081
G1 X111.282 Y116.155 E0.01059
G1 X111.307 Y116.273 E0.00379
G1 X111.489 Y116.395 F10800.000
G1 F8640
G1 X111.333 Y116.511 E-0.05526
G1 X111.285 Y116.845 E-0.07797
G1 X111.142 Y117.159 E-0.07970
G1 X110.920 Y117.414 E-0.07796
G1 X110.776 Y117.522 E-0.04151
G1 X110.618 Y117.609 E-0.04158
G1 X110.294 Y117.704 E-0.07799
G1 X109.956 Y117.704 E-0.07802
G1 X109.781 Y117.664 E-0.04152
G1 X109.612 Y117.603 E-0.04146
G1 X109.328 Y117.420 E-0.07805
G1 X109.132 Y117.194 E-0.06899
G1 E-0.04000 F2100.00000
G1 Z0.800 F10800.000
G1 X112.546 Y114.246
G1 Z0.200
G1 E0.80000 F2100.00000
G1 F1200
G1 X112.239 Y113.892 E0.01469
G1 X112.054 Y113.486 E0.01399
G1 X111.995 Y113.216 E0.00866
G1 X111.996 Y112.791 E0.01333
G1 X112.050 Y112.542 E0.00798
G1 X112.139 Y112.303 E0.00800
G1 X112.380 Y111.927 E0.01400
G1 X112.718 Y111.635 E0.01399
G1 X112.960 Y111.503 E0.00867
G1 X113.393 Y111.377 E0.01412
G1 X113.834 Y111.377 E0.01383
G1 X114.104 Y111.436 E0.00867
G1 X114.491 Y111.613 E0.01334
G1 X114.713 Y111.778 E0.00867
G1 X114.990 Y112.100 E0.01331
G1 X115.123 Y112.341 E0.00865
G1 X115.248 Y112.770 E0.01400
G1 X115.248 Y113.237 E0.01465
G1 X115.122 Y113.666 E0.01401
G1 X114.990 Y113.908 E0.00865
G1 X114.712 Y114.230 E0.01335
G1 X114.507 Y114.382 E0.00801
G1 X114.283 Y114.504 E0.00798
G1 X113.876 Y114.623 E0.01330
G1 X113.601 Y114.644 E0.00865
G1 X113.180 Y114.583 E0.01333
G1 X112.922 Y114.487 E0.00863
G1 X112.597 Y114.278 E0.01212
G1 X113.091 Y114.147 F10800.000
G1 F1200
G1 X112.795 Y113.958 E0.01102
G1 X112.560 Y113.686 E0.01128
G1 X112.414 Y113.366 E0.01103
G1 X112.373 Y113.175 E0.00612
G1 X112.373 Y112.831 E0.01079
G1 X112.412 Y112.648 E0.00587
G1 X112.478 Y112.473 E0.00588
G1 X112.668 Y112.177 E0.01103
G1 X112.934 Y111.947 E0.01102
G1 X113.105 Y111.853 E0.00611
G1 X113.446 Y111.754 E0.01114
G1 X113.794 Y111.754 E0.01088
G1 X113.985 Y111.796 E0.00613
G1 X114.298 Y111.939 E0.01080
G1 X114.454 Y112.056 E0.00612
G1 X114.679 Y112.316 E0.01077
G1 X114.772 Y112.487 E0.00611
G1 X114.871 Y112.824 E0.01102
G1 X114.871 Y113.183 E0.01126
G1 X114.772 Y113.521 E0.01103
G1 X114.678 Y113.692 E0.00612
G1 X114.454 Y113.952 E0.01078
G1 X114.303 Y114.064 E0.00587
G1 X114.138 Y114.154 E0.00589
G1 X113.809 Y114.250 E0.01078
G1 X113.614 Y114.265 E0.00611
G1 X113.274 Y114.215 E0.01079
G1 X113.148 Y114.168 E0.00422
G1 X112.800 Y114.344 F10800.000
G1 F8640
G1 X112.795 Y113.958 E-0.09475
G1 X112.560 Y113.686 E-0.08306
G1 X112.414 Y113.366 E-0.08120
G1 X112.373 Y113.175 E-0.04506
G1 X112.373 Y112.831 E-0.07943
